!!!!SEGMENT: pl-sa--19-a-i-19--001-001_stolle--sinfonia-di-camera-allegro-assai.krn
!!!cenid: 17xx:662
!!!COM: Stolle
!!!COM-rismID: pe41022824
!!!CDT:
!!!CNT:
!!!OPR: Sinfonia di Camera
!!!OTL: Allegro assai
!!!OMV: 001
!!!PDT:
!!!AGN: Secular
!!!YEC: Copyright 2022 Narodowy Instytut Fryderyka Chopina (https://polishscores.org)
!!!YEM: License CC-BY-4.0 (https://creativecommons.org/licenses/by/4.0)
!!!SMS-siglum: PL-SA
!!!SMS-shelfmark: 19/A I 19
!!!SMS-shelfwork: 001-001 M
!!!SMS-variant:
!!!SMS-altvar:
!!!NIFC-rismSourceID: 1001076835
!!!NIFC-rismChildID: 1001076835
!!!NIFC-islandoraID: none
!!!URL-pdf-islandora:
!!!URL-scan: https://bc.bdsandomierz.pl/dlibra/publication/1299/edition/1267/content @EN{Scan in the Sandomierz Diocese Digital Library} @PL{Skany w portalu Cyfrowa Biblioteka Diecezjalna w Sandomierzu}
!!!IIIF:
!!!ONB-nifc: UWAGA: części Sinfonii: Allegro assai, Allegretto, Minuetto (1mo + 2do), Polacchina
!!!AIN: 2 cor 1 empty 2 oboe 2 violn
!!!key:
**kern	**dynam	**kern	**dynam	**kern	**dynam	**kern	**dynam	**kern	**dynam	**kern	**kern
*part7	*	*part6	*	*part5	*	*part4	*	*part3	*	*part2	*part1
*staff7	*	*staff6	*	*staff5	*	*staff4	*	*staff3	*	*staff2	*staff1
*Iempty	*	*Ivioln	*	*Ivioln	*	*Icor	*	*Icor	*	*Ioboe	*Ioboe
*I"Baſso	*	*I"Violino secondo.	*	*I"Violino Primo	*	*I"Corno 2do del: C	*	*I"Corno 1o del C.	*	*I"Oboe Seconda	*I"Oboe 1ma
*I'B	*	*I'Vl 2	*	*I'Vl 1	*	*I'Cor 2	*	*I'Cor 1	*	*I'Ob 2	*I'Ob 1
*clefF4	*	*clefG2	*	*clefG2	*	*clefG2	*	*clefG2	*	*clefG2	*clefG2
*k[]	*	*k[]	*	*k[]	*	*k[]	*	*k[]	*	*k[]	*k[]
*C:	*	*C:	*	*C:	*	*C:	*	*C:	*	*C:	*C:
*M2/4	*	*M2/4	*	*M2/4	*	*M2/4	*	*M2/4	*	*M2/4	*M2/4
=1	=1	=1	=1	=1	=1	=1	=1	=1	=1	=1	=1
!	!	!	!	!	!	!	!	!LO:SIC:o=4ccc\|	!	!LO:SIC:o=4cc\|	!
!LO:TX:a:t=Allegro aſsai	!	!LO:TX:b:t=Allegro aſsai	!	!LO:TX:b:t=Allegro aſsai	!	!LO:TX:a:t=Allegro aſsai	!	!LO:TX:b:t=Allegro aſsai	!	!LO:TX:b:t=Allegro aſsai	!LO:TX:a:t=Allegro aſsai
!LO:TX:a:t=Sinfonia \ndi Camera	!	!LO:TX:a:t=Sinfonia \ndi Camera	!	!LO:TX:a:t=Sinfonia \ndi Camera	!	!LO:TX:a:t=Sinfonia \ndi Camera	!	!LO:TX:a:t=Sonata di Camera	!	!LO:TX:a:t=Sonata di Camera	!LO:TX:a:t=Sinfonia \ndi Camera
4c\|	.	4cc\|	.	4cc\|	.	4cc\|	.	Sinfonia di Camera	.	Sinfonia di Camera	4cc\|
4C/|	.	4c/|	.	4c/|	.	4c/|	.	4cc\|	.	4c/|	4c/|
=2	=2	=2	=2	=2	=2	=2	=2	=2	=2	=2	=2
4c\|	.	4cc\|	.	4cc\|	.	4cc\|	.	4ccc\|	.	4cc\|	4cc\|
4C/|	.	4c/|	.	4c/|	.	4c/|	.	4cc\|	.	4c/|	4c/|
=3	=3	=3	=3	=3	=3	=3	=3	=3	=3	=3	=3
8r	.	8r	.	8r	.	8r	.	8r	.	8r	8r
8C/L|	.	8c/L|	.	8c/L|	.	8cc\L	.	8cc\L|	.	8c/L|	8c/L
8D/|	.	8d/|	.	8d/|	.	8dd\	.	8dd\|	.	8d/|	8d/
8E/J|	.	8e/J|	.	8e/J|	.	8ee\J	.	8ee\J|	.	8e/J|	8e/J
=4	=4	=4	=4	=4	=4	=4	=4	=4	=4	=4	=4
8F\L	.	8f/L|	.	8f/L|	.	8ff\L	.	8ff\L	.	8f/L	8f/L
8G\	.	8g/|	.	8g/|	.	8ee\	.	8gg\	.	8g/	8g/
8A\	.	8a/|	.	8a/|	.	8ff\	.	8aa\	.	8a/	8a/
8B\J	.	8b/J|	.	8b/J|	.	8dd\J	.	8bb\J	.	8b/J	8b/J
=5	=5	=5	=5	=5	=5	=5	=5	=5	=5	=5	=5
!	!	!LO:TX:t=P:problem=mixed beam	!	!LO:TX:t=P:problem=mixed beam	!	!	!	!	!	!LO:TX:t=P:problem=mixed beam	!LO:TX:a:t=P:problem=mixed beam
8c\L	.	8cc\L	.	8cc\L|	.	8ee\L	.	8ccc\L	.	8cc\L	8cc\L
8E\	.	8e/	.	8e/|	.	8ee\	.	8ee\	.	8e/	8e/
8D\	.	8d/	.	8d/|	.	8dd\	.	8dd\	.	8d/	8d/
8C\J	.	8c/J	.	8c/J|	.	8cc\J	.	8cc\J	.	8c/J	8c/J
!	!	!	!	!	!	!	!	!	!	!LO:LB:g=original	!LO:LB:g=original
=6	=6	=6	=6	=6	=6	=6	=6	=6	=6	=6	=6
4G\	.	4g/	.	4g/|	.	4gg\	.	4gg\	.	4gg\	4gg\
4GG/	.	4G/	.	4G/|	.	4g/	.	4g/	.	4g/	4g/
!	!	!LO:LB:g=original	!	!LO:LB:g=original	!	!	!	!	!	!	!
=7	=7	=7	=7	=7	=7	=7	=7	=7	=7	=7	=7
4G\	.	4g/	.	4g/|	.	4gg\	.	4gg\	.	4gg\	4gg\
4GG/	.	4G/	.	4G/|	.	4g/	.	4g/	.	4g/	4g/
=8	=8	=8	=8	=8	=8	=8	=8	=8	=8	=8	=8
8r	.	8r	.	8r	.	8r	.	8r	.	8r	8r
8C/L	.	8c/L	.	8c/L|	.	8cc\L	.	8cc\L	.	8c/L	8c/L
8D/	.	8d/	.	8d/|	.	8dd\	.	8dd\	.	8d/	8d/
8E/J	.	8e/J	.	8e/J|	.	8ee\J	.	8ee\J	.	8e/J	8e/J
!LO:LB:g=original	!	!	!	!	!	!	!	!	!	!	!
=9	=9	=9	=9	=9	=9	=9	=9	=9	=9	=9	=9
8F\L	.	8f/L	.	8f/L|	.	8ff\L	.	8ff\L	.	8f/L	8f/L
8G\	.	8g/	.	8g/|	.	8ee\	.	8gg\	.	8g/	8g/
8A\	.	8a/	.	8a/|	.	8ff\	.	8aa\	.	8a/	8a/
8B\J	.	8b/J	.	8b/J|	.	8dd\J	.	8bb\J	.	8b/J	8b/J
!	!	!	!	!	!	!LO:LB:g=original	!	!	!	!	!
=10	=10	=10	=10	=10	=10	=10	=10	=10	=10	=10	=10
!	!	!LO:TX:t=P:problem=mixed beam	!	!LO:TX:t=P:problem=mixed beam	!	!	!	!	!	!	!
8c\L	.	8cc\L	.	8cc\L|	.	8ee\L	.	8ccc\L	.	8cc\L	8cc\L
8E\	.	8e/	.	8e/|	.	8ee\	.	8ee\	.	8ee\	8ee\
8D\	.	8d/	.	8d/|	.	8dd\	.	8dd\	.	8dd\	8dd\
8C\J	.	8c/J	.	8c/J|	.	8cc\J	.	8cc\J	.	8cc\J	8cc\J
!	!	!	!	!	!	!	!	!LO:LB:g=original	!	!	!
=11	=11	=11	=11	=11	=11	=11	=11	=11	=11	=11	=11
8qqF#X/	.	8qqf#X\	.	8qqf#X\	.	.	.	.	.	8qqff#X/	8qqff#X/
*2\right	*	*	*	*	*	*	*	*2\right	*	*2\right	*2\right
2G\	.	2g/	.	2g/	.	2g/	.	2gg\	.	2gg\	2gg\
=12	=12	=12	=12	=12	=12	=12	=12	=12	=12	=12	=12
2GG;/	.	2G;/	.	2G;/	.	2G;/	.	2g;/	.	2g;/	2g;/
=13	=13	=13	=13	=13	=13	=13	=13	=13	=13	=13	=13
!	!LO:DY:b	!	!	!	!	!LO:TX:a:t=10.	!	!	!	!	!
!	!	!	!	!	!	!	!	!LO:TX:a:t=10.	!	!LO:TX:a:t=Soli	!LO:TX:b:t=Soli
!	!LO:DY:t=Po&colon;	!LO:N:vis=0	!	!LO:N:vis=0	!	!LO:N:vis=00	!	!LO:N:vis=00	!	!	!
4c\|	p	1r	.	1r	.	0r	.	0r	.	8.ee-XT\L	8.ggT\L
.	.	.	.	.	.	.	.	.	.	32dd\LL	32ff\LL
!	!	!LO:TX:b:t=2	!	!LO:TX:b:t=2	!	!	!	!	!	!	!
.	.	.	.	.	.	.	.	.	.	32ee-\JJJ	32gg\JJJ
4C/|	.	.	.	.	.	.	.	.	.	8ff\L	8aa-X\L
.	.	.	.	.	.	.	.	.	.	8ee-\J	8gg\J
=14	=14	=14	=14	=14	=14	=14	=14	=14	=14	=14	=14
4c\|	.	.	.	.	.	.	.	.	.	8.ee-XT\L	8.ggT\L
.	.	.	.	.	.	.	.	.	.	32dd\LL	32ff\LL
.	.	.	.	.	.	.	.	.	.	32ee-\JJJ	32gg\JJJ
4C/|	.	.	.	.	.	.	.	.	.	8ff\L	8aa-X\L
.	.	.	.	.	.	.	.	.	.	8ee-\J	8gg\J
!	!	!	!	!	!	!	!	!	!	!LO:LB:g=original	!LO:LB:g=original
=15	=15	=15	=15	=15	=15	=15	=15	=15	=15	=15	=15
!	!	!l	!	!	!	!	!	!	!	!LO:TX:b:t=2	!LO:TX:b:t=2
!	!	!	!	!	!LO:DY:t=Po&colon;	!	!	!	!	!LO:N:vis=0	!LO:N:vis=0
!	!	!	!LO:DY:t=Po&colon;	!	!	!	!	!	!	!	!
!LO:N:vis=1	!	!	!LO:DY:b	!	!	!	!	!	!	!	!
2r	.	8ff\L|	p	8aa-X\L|	p	.	.	.	.	1r	1r
.	.	8ee-X\|	.	8gg\|	.	.	.	.	.	.	.
.	.	8dd\|	.	8ff\|	.	.	.	.	.	.	.
.	.	8cc\J|	.	8ee-X\J|	.	.	.	.	.	.	.
=16	=16	=16	=16	=16	=16	=16	=16	=16	=16	=16	=16
.	.	8qqcc/	.	8qqeen/	.	.	.	.	.	.	.
!	!LO:DY:a	!	!	!	!	!	!	!	!	!	!
!	!LO:DY:t=for&colon;	!	!	!	!	!	!	!	!	!	!
8r	f	4dd\	.	4ff\	.	.	.	.	.	.	.
8GG/L|	.	.	.	.	.	.	.	.	.	.	.
8BB/|	.	4r	.	4r	.	.	.	.	.	.	.
8D/J|	.	.	.	.	.	.	.	.	.	.	.
=17	=17	=17	=17	=17	=17	=17	=17	=17	=17	=17	=17
!	!LO:DY:a	!	!	!	!	!	!	!	!	!	!
!	!LO:DY:t=Po&colon;	!LO:N:vis=0	!	!LO:N:vis=0	!	!LO:N:vis=00	!	!LO:N:vis=00	!	!	!
4G\|	p	1r|	.	1r	.	0r	.	0r	.	8.ddT\L	8.ffT\L
.	.	.	.	.	.	.	.	.	.	32cc\LL	32ee-X\LL
!	!	!LO:TX:b:t=2	!	!LO:TX:b:t=2	!	!	!	!	!	!	!
.	.	.	.	.	.	.	.	.	.	32dd\JJJ	32ff\JJJ
4GG/|	.	.	.	.	.	.	.	.	.	8ee-X\L	8gg\L
.	.	.	.	.	.	.	.	.	.	8dd\J	8ff\J
=18	=18	=18	=18	=18	=18	=18	=18	=18	=18	=18	=18
4G\|	.	.	.	.	.	.	.	.	.	8.ddT\L	8.ffT\L
.	.	.	.	.	.	.	.	.	.	32cc\LL	32ee-X\LL
.	.	.	.	.	.	.	.	.	.	32dd\JJJ	32ff\JJJ
4GG/|	.	.	.	.	.	.	.	.	.	8ee-X\L	8gg\L
.	.	.	.	.	.	.	.	.	.	8dd\J	8ff\J
!	!	!	!	!LO:LB:g=original	!	!	!	!	!	!	!
=19	=19	=19	=19	=19	=19	=19	=19	=19	=19	=19	=19
!	!	!	!LO:DY:t=Po&colon;	!	!	!	!	!	!	!LO:TX:b:t=2	!LO:TX:b:t=2
!	!	!	!LO:DY:b	!	!LO:DY:t=Po&colon;	!	!	!	!	!LO:N:vis=0	!LO:N:vis=0
!LO:N:vis=1	!	!	!	!	!	!	!	!	!	!	!
2r	.	8ee-X\L|	p	8gg\L	p	.	.	.	.	1r	1r
.	.	8dd\|	.	8ff\	.	.	.	.	.	.	.
.	.	8cc\|	.	8ee-X\	.	.	.	.	.	.	.
.	.	8b\J|	.	8dd\J	.	.	.	.	.	.	.
=20	=20	=20	=20	=20	=20	=20	=20	=20	=20	=20	=20
.	.	8qqb/	.	8qqdd/	.	.	.	.	.	.	.
!	!LO:DY:a	!	!	!	!	!	!	!	!	!	!
!	!LO:DY:t=for&colon;	!	!	!	!	!	!	!	!	!	!
8r	f	4cc\	.	4ee-X\	.	.	.	.	.	.	.
8C\L|	.	.	.	.	.	.	.	.	.	.	.
8E-X\|	.	4r	.	4r	.	.	.	.	.	.	.
8G\J|	.	.	.	.	.	.	.	.	.	.	.
=21	=21	=21	=21	=21	=21	=21	=21	=21	=21	=21	=21
!	!	!LO:N:vis=0	!	!LO:N:vis=0	!	!LO:N:vis=0	!	!LO:N:vis=0	!	!	!
4c\|	p	1r	.	1r	.	1r	.	1r	.	8.ccT\L	8.ee-XT\L
.	.	.	.	.	.	.	.	.	.	32b\LL	32dd\LL
!	!	!LO:TX:b:t=2	!	!LO:TX:b:t=2	!	!	!	!	!	!	!
.	.	.	.	.	.	.	.	.	.	32cc\JJJ	32ee-\JJJ
4C/|	.	.	.	.	.	.	.	.	.	8dd\L	8ff\L
.	.	.	.	.	.	.	.	.	.	8cc\J	8ee-\J
!LO:LB:g=original	!	!	!	!	!	!	!	!	!	!	!
=22	=22	=22	=22	=22	=22	=22	=22	=22	=22	=22	=22
4c\	.	.	.	.	.	.	.	.	.	8.ccT\L	8.ee-XT\L
.	.	.	.	.	.	.	.	.	.	32b\LL	32dd\LL
.	.	.	.	.	.	.	.	.	.	32cc\JJJ	32ee-\JJJ
4C/	.	.	.	.	.	.	.	.	.	8dd\L	8ff\L
.	.	.	.	.	.	.	.	.	.	8cc\J	8ee-\J
=23	=23	=23	=23	=23	=23	=23	=23	=23	=23	=23	=23
*	*	*2\right	*	*	*	*2\right	*	*	*	*	*
!	!	!	!LO:DY:a	!	!LO:DY:b	!	!	!	!	!LO:TX:a:t=Tutti	!LO:TX:b:t=Tutti
!	!	!	!LO:DY:t=for&colon;	!	!LO:DY:t=for&colon;	!	!	!	!	!	!
8r	.	4cc\|	f	4ee-X\|	f	2cc\	.	2cc\	.	2cc\	2ee-X\
!LO:TX:t=P:problem=mixed beam	!	!	!	!	!	!	!	!	!	!	!
!	!LO:DY:b	!	!	!	!	!	!	!	!	!	!
!	!LO:DY:t=for&colon;	!	!	!	!	!	!	!	!	!	!
8c\L	f	.	.	.	.	.	.	.	.	.	.
8B-X\	.	4c/|	.	4e/|	.	.	.	.	.	.	.
8BB/J	.	.	.	.	.	.	.	.	.	.	.
=24	=24	=24	=24	=24	=24	=24	=24	=24	=24	=24	=24
!LO:TX:t=P:problem=mixed beam	!	!	!	!	!	!	!	!	!	!	!
8AA-X/L	.	4cc\	.	4ee\|	.	2cc\	.	2cc\	.	2cc\	2ee\
8A\	.	.	.	.	.	.	.	.	.	.	.
8G\	.	4c/	.	4e/|	.	.	.	.	.	.	.
8GG/J	.	.	.	.	.	.	.	.	.	.	.
!	!	!	!	!	!	!	!	!	!	!LO:LB:g=original	!
=25	=25	=25	=25	=25	=25	=25	=25	=25	=25	=25	=25
*	*	*	*	*2\right	*	*	*	*	*	*	*
!LO:TX:t=P:problem=mixed beam	!	!	!	!	!	!	!	!	!	!	!
8FF#X/L	.	2cc\	.	2ee\	.	4cc\	.	4ccc\	.	2cc\	2eet\
8F\	.	.	.	.	.	.	.	.	.	.	.
8F\	.	.	.	.	.	4c/	.	4cc\	.	.	.
8F\J	.	.	.	.	.	.	.	.	.	.	.
!	!	!	!	!	!	!	!	!	!	!	!LO:LB:g=original
=26	=26	=26	=26	=26	=26	=26	=26	=26	=26	=26	=26
8F\L	.	2ccT\	.	2eet\	.	4cc\	.	4ccc\	.	2cc\	2ee-X\
8D\	.	.	.	.	.	.	.	.	.	.	.
8E\	.	.	.	.	.	4c/	.	4cc\	.	.	.
8F\J	.	.	.	.	.	.	.	.	.	.	.
=27	=27	=27	=27	=27	=27	=27	=27	=27	=27	=27	=27
!LO:TX:t=P:problem=mixed beam	!	!	!	!	!	!	!	!LO:TX:t=P:problem=mixed beam	!	!	!
.	.	8qqcc/	.	8qqee/	.	.	.	.	.	.	.
8G/L	.	4b\	.	4dd\	.	8g/L	.	8g/L	.	4b/	4dd\
8GG/	.	.	.	.	.	8g/	.	8dd\	.	.	.
8G\	.	4r	.	4r	.	8g/	.	8dd\	.	4r	4r
8Fn/J	.	.	.	.	.	8g/J	.	8dd\J	.	.	.
=28	=28	=28	=28	=28	=28	=28	=28	=28	=28	=28	=28
8E\L	.	16g/LL	.	8gg\	.	[<2cc\	.	2gg\	.	2g/	[<2cc\
.	.	16g/	.	.	.	.	.	.	.	.	.
8E\	.	16g/	.	4cc\	.	.	.	.	.	.	.
.	.	16g/JJ	.	.	.	.	.	.	.	.	.
8E\	.	16g/LL	.	.	.	.	.	.	.	.	.
.	.	16g/	.	.	.	.	.	.	.	.	.
8E\J	.	16g/	.	8b-X/	.	.	.	.	.	.	.
.	.	16g/JJ	.	.	.	.	.	.	.	.	.
!	!	!LO:LB:g=original	!	!	!	!	!	!	!	!	!
=29	=29	=29	=29	=29	=29	=29	=29	=29	=29	=29	=29
8F\L	.	16c/LL	.	8a/	.	2cc\_<	.	2aa\	.	2a/	2cc\_<
.	.	16a/	.	.	.	.	.	.	.	.	.
8F\	.	16a/	.	4bn/	.	.	.	.	.	.	.
.	.	16a/JJ	.	.	.	.	.	.	.	.	.
8F\	.	16a/LL	.	.	.	.	.	.	.	.	.
.	.	16a/	.	.	.	.	.	.	.	.	.
8F\J	.	16a/	.	8cc\	.	.	.	.	.	.	.
.	.	16a/JJ	.	.	.	.	.	.	.	.	.
!	!	!	!	!LO:LB:g=original	!	!	!	!	!	!	!
=30	=30	=30	=30	=30	=30	=30	=30	=30	=30	=30	=30
8E\L	.	16c/LL	.	8gg\	.	2cc\_<	.	2gg\	.	2g/	2cc\_<
.	.	16g/	.	.	.	.	.	.	.	.	.
8E\	.	16g/	.	4cc\	.	.	.	.	.	.	.
.	.	16g/JJ	.	.	.	.	.	.	.	.	.
8E\	.	16g/LL	.	.	.	.	.	.	.	.	.
.	.	16g/	.	.	.	.	.	.	.	.	.
8E\J	.	16g/	.	8b-X/	.	.	.	.	.	.	.
.	.	16g/JJ	.	.	.	.	.	.	.	.	.
=31	=31	=31	=31	=31	=31	=31	=31	=31	=31	=31	=31
8F\L	.	8c/L	.	16a/LL	.	4cc\]	.	4aa\	.	4a/	4cc\]
.	.	.	.	16g/J	.	.	.	.	.	.	.
8C\	.	8e/	.	8f/J	.	.	.	.	.	.	.
8D\	.	8f#X/	.	4r	.	4r	.	4r	.	4r	4r
8E\J	.	8g/J	.	.	.	.	.	.	.	.	.
=32	=32	=32	=32	=32	=32	=32	=32	=32	=32	=32	=32
8F#X\L	.	16d/LL	.	8aa\	.	[<2dd\	.	2aa\	.	2a/	[<2dd\
.	.	16a/	.	.	.	.	.	.	.	.	.
8F#\	.	16a/	.	4dd\	.	.	.	.	.	.	.
.	.	16a/JJ	.	.	.	.	.	.	.	.	.
8F#\	.	16a/LL	.	.	.	.	.	.	.	.	.
.	.	16a/	.	.	.	.	.	.	.	.	.
8F#\J	.	16a/	.	8cc\	.	.	.	.	.	.	.
.	.	16a/JJ	.	.	.	.	.	.	.	.	.
!LO:LB:g=original	!	!	!	!	!	!	!	!	!	!	!
=33	=33	=33	=33	=33	=33	=33	=33	=33	=33	=33	=33
8G\L	.	16d/LL	.	8b\	.	2dd\_<	.	2bb\	.	2b/	2dd\_<
.	.	16b/	.	.	.	.	.	.	.	.	.
8G\	.	16b/	.	4cc#X\	.	.	.	.	.	.	.
.	.	16b/JJ	.	.	.	.	.	.	.	.	.
8G\	.	16b/LL	.	.	.	.	.	.	.	.	.
.	.	16b/	.	.	.	.	.	.	.	.	.
8G\J	.	16b/	.	8dd\	.	.	.	.	.	.	.
.	.	16b/JJ	.	.	.	.	.	.	.	.	.
!	!	!LO:LB:g=original	!	!	!	!	!	!	!	!	!
=34	=34	=34	=34	=34	=34	=34	=34	=34	=34	=34	=34
8F#X\L	.	16d/LL	.	8aa\	.	2dd\_<	.	2aa\	.	2a/	2dd\_<
.	.	16a/	.	.	.	.	.	.	.	.	.
8F#\	.	16a/	.	4dd\	.	.	.	.	.	.	.
.	.	16a/JJ	.	.	.	.	.	.	.	.	.
8F#\	.	16a/LL	.	.	.	.	.	.	.	.	.
.	.	16a/	.	.	.	.	.	.	.	.	.
8F#\J	.	16a/	.	8ccn\	.	.	.	.	.	.	.
.	.	16a/JJ	.	.	.	.	.	.	.	.	.
=35	=35	=35	=35	=35	=35	=35	=35	=35	=35	=35	=35
4G\	.	16b/LL	.	16b/LL	.	4dd\]	.	4bb\	.	4b/	4dd\]
.	.	16g/	.	16g/	.	.	.	.	.	.	.
.	.	16a/	.	16a/	.	.	.	.	.	.	.
.	.	16b/JJ	.	16b/JJ	.	.	.	.	.	.	.
4GG/	.	16cc\LL	.	16cc\LL	.	4r	.	4r	.	4r	4r
.	.	16dd\	.	16dd\	.	.	.	.	.	.	.
.	.	16ee\	.	16ee\	.	.	.	.	.	.	.
.	.	16ff\JJ	.	16ff\JJ	.	.	.	.	.	.	.
!	!	!	!	!LO:LB:g=original	!	!LO:LB:g=original	!	!	!	!	!
=36	=36	=36	=36	=36	=36	=36	=36	=36	=36	=36	=36
4C/	.	16ee\LL|	.	16ee\LL|	.	[<2cc\	.	4ee\	.	4cc\|	4ee\
.	.	(>16cc\	.	(>16cc\	.	.	.	.	.	.	.
.	.	16b\	.	16b\	.	.	.	.	.	.	.
.	.	16cc\JJ)	.	16cc\JJ)	.	.	.	.	.	.	.
4D/	.	16ff\LL	.	16ff\LL|	.	.	.	4ff\	.	4cc\|	4ff\
.	.	(>16cc\	.	(>16cc\	.	.	.	.	.	.	.
.	.	16b\	.	16b\	.	.	.	.	.	.	.
.	.	16cc\JJ)	.	16cc\JJ)	.	.	.	.	.	.	.
!	!	!	!	!	!	!	!	!LO:LB:g=original	!	!LO:LB:g=original	!
=37	=37	=37	=37	=37	=37	=37	=37	=37	=37	=37	=37
4E\	.	16gg\LL|	.	16gg\LL|	.	2cc\]	.	4gg\	.	4cc\	4gg\
.	.	(>16cc\	.	(>16cc\	.	.	.	.	.	.	.
.	.	16b\	.	16b\	.	.	.	.	.	.	.
.	.	16cc\JJ)	.	16cc\JJ)	.	.	.	.	.	.	.
4F\	.	16aa\LL	.	16aa\LL|	.	.	.	4aa\	.	4cc\	4aa\
.	.	16cc\	.	(>16cc\	.	.	.	.	.	.	.
.	.	16b\	.	16b\	.	.	.	.	.	.	.
.	.	16cc\JJ	.	16cc\JJ)	.	.	.	.	.	.	.
!	!	!	!	!	!	!	!	!	!	!	!LO:LB:g=original
=38	=38	=38	=38	=38	=38	=38	=38	=38	=38	=38	=38
4G\	.	16b/LL	.	16b/LL|	.	4g/	.	4gg\	.	4b/	4b\
.	.	16g/	.	(<16g/	.	.	.	.	.	.	.
.	.	16f#X/	.	16f#X/	.	.	.	.	.	.	.
.	.	16g/JJ	.	16g/JJ)	.	.	.	.	.	.	.
4A\	.	16cc/LL	.	16cc/LL	.	4cc\	.	4cc\	.	4cc\	4cc\
.	.	16g/	.	16g/	.	.	.	.	.	.	.
.	.	16f#/	.	16f#/	.	.	.	.	.	.	.
.	.	16g/JJ	.	16g/JJ	.	.	.	.	.	.	.
!	!	!LO:LB:g=original	!	!	!	!	!	!	!	!	!
=39	=39	=39	=39	=39	=39	=39	=39	=39	=39	=39	=39
!	!	!LO:TX:a:t=P:problem=mixed beam	!	!LO:TX:t=P:problem=mixed beam	!	!	!	!	!	!	!
4B\	.	16dd\LL	.	16dd\LL	.	4dd\	.	4dd\	.	4dd\	4dd\
.	.	16g/	.	16g/	.	.	.	.	.	.	.
.	.	16f#X/	.	16f/	.	.	.	.	.	.	.
.	.	16g/JJ	.	16g/JJ	.	.	.	.	.	.	.
!	!	!LO:TX:a:t=P:problem=mixed beam	!	!LO:TX:t=P:problem=mixed beam	!	!	!	!	!	!	!
4c\	.	16ee\LL	.	16ee/LL	.	4ee\	.	4ee\	.	4ee\	4ee\
.	.	16g/	.	16g/	.	.	.	.	.	.	.
.	.	16f#/	.	16f/	.	.	.	.	.	.	.
.	.	16g/JJ	.	16g/JJ	.	.	.	.	.	.	.
=40	=40	=40	=40	=40	=40	=40	=40	=40	=40	=40	=40
4G\	.	16dd\LL	.	16ff\LL	.	8r	.	8r	.	(>16dd\LL	16ff\LL
.	.	16cc\JJ	.	16ee\JJ	.	.	.	.	.	16cc\JJ)	16ee\JJ
.	.	4dd\	.	4ff\	.	4dd\	.	4ff\	.	4dd\	4ff\
4GG/	.	.	.	.	.	.	.	.	.	.	.
.	.	[>8dd\	.	[>8ff\	.	8dd\	.	8ff\	.	8dd\	8ff\
!	!	!	!	!LO:LB:g=original	!	!	!	!	!	!	!
=41	=41	=41	=41	=41	=41	=41	=41	=41	=41	=41	=41
4G\	.	16dd\LL]	.	16ff\LL]	.	8r	.	8r	.	(>16dd\LL	16ff\LL
.	.	16cc\JJ	.	16ee\JJ	.	.	.	.	.	16cc\JJ)	16ee\JJ
.	.	4dd\	.	4ff\	.	4dd\	.	4ff\	.	4dd\	4ff\
4GG/	.	.	.	.	.	.	.	.	.	.	.
.	.	8dd\	.	8ff\	.	8dd\	.	8ff\	.	8dd\	8ff\
=42	=42	=42	=42	=42	=42	=42	=42	=42	=42	=42	=42
!	!	!	!	!	!	!	!	!	!	!LO:TX:t=P:problem=mixed beam	!
8C/L	.	8g/L	.	8ee\L	.	8cc\L	.	8ee\L	.	8cc\L	8ee\L
8D/	.	8f/	.	8b\	.	8g\	.	8dd\	.	16g/L	8b\
.	.	.	.	.	.	.	.	.	.	16f/JJ	.
!	!	!	!	!	!	!	!	!	!	!LO:TX:t=P:problem=mixed beam	!
8E/J	.	8e/J	.	8cc\J	.	8e\J	.	8cc\J	.	8e/L	8cc\
8r	.	8r	.	8r	.	8r	.	8r	.	8ff\J	8aa\J
=43	=43	=43	=43	=43	=43	=43	=43	=43	=43	=43	=43
.	.	.	.	.	.	.	.	.	.	8qqff/	8qqaa/
8r	.	8r	.	8r	.	4r	.	4r	.	4.ee\	4.gg\
8GG/L	.	8b\L	.	8b\L	.	.	.	.	.	.	.
8AA/	.	8cc\	.	8cc\	.	8r	.	8r	.	.	.
8BB/J	.	8dd\J	.	8dd\J	.	8dd\	.	8ff\	.	8dd\	8ff\
!	!	!	!	!	!	!	!	!	!	!LO:LB:g=original	!
=44	=44	=44	=44	=44	=44	=44	=44	=44	=44	=44	=44
!	!	!	!	!	!	!	!	!	!	!LO:TX:t=P:problem=mixed beam	!
8C/L	.	8g/L	.	8ee\L	.	8cc\L	.	8ee\L	.	8cc\L	8ee\L
8D/	.	8f/	.	8b\	.	8g\	.	8dd\	.	16g/L	8b\
.	.	.	.	.	.	.	.	.	.	16f/JJ	.
!	!	!	!	!	!	!	!	!	!	!LO:TX:t=P:problem=mixed beam	!
8E/J	.	8e/J	.	8cc\J	.	8e\J	.	8cc\J	.	8e/L	8cc\
8r	.	8r	.	8r	.	8r	.	8r	.	8ff\J	8aa\J
!LO:LB:g=original	!	!	!	!	!	!	!	!	!	!	!LO:LB:g=original
=45	=45	=45	=45	=45	=45	=45	=45	=45	=45	=45	=45
.	.	.	.	.	.	.	.	.	.	8qqff/	8qqaa/
8r	.	8r	.	8r	.	4r	.	4r	.	4.ee\	4.gg\
8GG/L	.	8b\L	.	8b\L	.	.	.	.	.	.	.
8AA/	.	8cc\	.	8cc\	.	8r	.	8r	.	.	.
8BB/J	.	8dd\J	.	8dd\J	.	8dd\	.	8ff\	.	8dd\	8ff\
!	!	!LO:LB:g=original	!	!	!	!	!	!	!	!	!
=46	=46	=46	=46	=46	=46	=46	=46	=46	=46	=46	=46
8C/L	.	(>16ee\LL	.	(>16ee\LL	.	8ee\L	.	8ee\L	.	8ee\L	8ee\L
.	.	16cc\)	.	16cc\)	.	.	.	.	.	.	.
8D/	.	(>16ff\	.	(>16ff\	.	8dd\	.	8ff\	.	8dd\	8ff\
.	.	16cc\JJ)	.	16cc\JJ)	.	.	.	.	.	.	.
8E/	.	(>16gg\LL	.	(>16gg\LL	.	8cc\	.	8gg\	.	8cc\	8gg\
.	.	16cc\)	.	16cc\)	.	.	.	.	.	.	.
8F/J	.	(>16aa\	.	(>16aa\	.	8cc\J	.	8aa\J	.	8cc\J	8aa\J
.	.	16cc\JJ)	.	16cc\JJ)	.	.	.	.	.	.	.
=47	=47	=47	=47	=47	=47	=47	=47	=47	=47	=47	=47
8G\L	.	(16b/LL	.	(<16b/LL	.	8g\L	.	8gg\L	.	8b\L	8b\L
.	.	16g/)	.	16g/)	.	.	.	.	.	.	.
8A\	.	(<16cc/	.	(<16cc/	.	8cc\	.	8cc\	.	8cc\	8cc\
.	.	16g/JJ)	.	16g/JJ)	.	.	.	.	.	.	.
8B\	.	(<16dd/LL	.	(<16dd/LL	.	8dd\	.	8dd\	.	8dd\	8dd\
.	.	16g/)	.	16g/)	.	.	.	.	.	.	.
8c\J	.	(<16ee/	.	(<16ee/	.	8ee\J	.	8ee\J	.	8ee\J	8ee\J
.	.	16g\JJ)	.	16g/JJ)	.	.	.	.	.	.	.
!	!	!	!	!LO:LB:g=original	!	!	!	!	!	!	!
=48	=48	=48	=48	=48	=48	=48	=48	=48	=48	=48	=48
4G\	.	16ff\LL	.	(>16ff\LL	.	2dd\	.	2ff\	.	2dd\	2ff\
.	.	(>16ee\	.	16ee\)	.	.	.	.	.	.	.
.	.	16dd\)	.	(>16dd\	.	.	.	.	.	.	.
.	.	16cc\JJ	.	16cc\JJ)	.	.	.	.	.	.	.
4GG/	.	16b/LL	.	(<16b/LL	.	.	.	.	.	.	.
.	.	16a/	.	16a/)	.	.	.	.	.	.	.
.	.	16g/	.	(<16g/	.	.	.	.	.	.	.
.	.	16f/JJ	.	16f/JJ)	.	.	.	.	.	.	.
!	!	!	!	!	!	!	!	!LO:LB:g=original	!	!	!
=49	=49	=49	=49	=49	=49	=49	=49	=49	=49	=49	=49
4G\	.	16e/LL	.	16e/LL	.	4cc\	.	8ee\	.	8cc\	4ee\
.	.	16g/	.	16g/	.	.	.	.	.	.	.
.	.	16cc/	.	16cc/	.	.	.	4ccc\	.	4cc\	.
.	.	16e/JJ	.	16e/JJ	.	.	.	.	.	.	.
!	!	!LO:TX:t=P:problem=mixed beam	!	!LO:TX:t=P:problem=mixed beam	!	!	!	!	!	!	!
4GG/	.	16G/LL	.	16G/LL	.	4g/	.	.	.	.	4ddT\
.	.	16d/	.	16d/	.	.	.	.	.	.	.
.	.	16cc\	.	16cc\	.	.	.	8bb\	.	8b/	.
.	.	16b\JJ	.	16b\JJ	.	.	.	.	.	.	.
=50	=50	=50	=50	=50	=50	=50	=50	=50	=50	=50	=50
4c\	.	4cc\|	.	4cc\|	.	4cc\	.	4ccc\	.	4cc\	4cc\
4C/	.	4c/|	.	4c/|	.	4c/	.	4cc\	.	4c/	4c/
!	!	!	!	!	!	!LO:LB:g=original	!	!	!	!LO:LB:g=original	!
=51	=51	=51	=51	=51	=51	=51	=51	=51	=51	=51	=51
4c\	.	4cc\|	.	4cc\|	.	4cc\	.	4ccc\	.	4cc\	4cc\
4C/	.	4c/|	.	4c/|	.	4c/	.	4cc\	.	4c/	4c/
!	!	!LO:LB:g=original	!	!	!	!	!	!	!	!	!
=52	=52	=52	=52	=52	=52	=52	=52	=52	=52	=52	=52
8r	.	8r	.	8r	.	8r	.	8r	.	8r	8r
8C/L	.	8c/L|	.	8c/L|	.	8cc\L	.	8cc\L	.	8c/L	8c/L
8D/	.	8d/|	.	8d/|	.	8dd\	.	8dd\	.	8d/	8d/
8E/J	.	8e/J|	.	8e/J|	.	8ee\J	.	8ee\J	.	8e/J	8e/J
=53	=53	=53	=53	=53	=53	=53	=53	=53	=53	=53	=53
8F\L	.	8f/L	.	8f/L|	.	8ff\L	.	8ff\L	.	8f/L	8f/L
8G\	.	8g/	.	8g/|	.	8ee\	.	8gg\	.	8g/	8g/
8A\	.	8a/	.	8a/|	.	8ff\	.	8aa\	.	8a/	8a/
8B\J	.	8b/J	.	8b/J|	.	8dd\J	.	8bb\J	.	8b/J	8b/J
!	!	!	!	!	!	!	!	!	!	!	!LO:LB:g=original
=54	=54	=54	=54	=54	=54	=54	=54	=54	=54	=54	=54
!	!	!LO:TX:t=P:problem=mixed beam	!	!	!	!	!	!	!	!	!
!	!	!	!	!LO:TX:a:t=P:problem=mixed beam	!	!	!	!	!	!	!
8c\L	.	8cc\L	.	8cc\L|	.	8ee\L	.	8ccc\L	.	8cc\L	8cc\L
8E\	.	8e/	.	8e/|	.	8ee\	.	8ee\	.	8ee\	8ee\
8D\	.	8d/	.	8d/|	.	8dd\	.	8dd\	.	8dd\	8dd\
8C\J	.	8c/J	.	8c/J|	.	8cc\J	.	8cc\J	.	8cc\J	8cc\J
!	!	!	!	!LO:LB:g=origina	!	!	!	!	!	!	!
=55	=55	=55	=55	=55	=55	=55	=55	=55	=55	=55	=55
4G\	.	4g/	.	4g/|	.	4g/	.	4gg\	.	4gg\	4gg\
4GG/	.	4G/	.	4G/|	.	4G/	.	4g/	.	4g/	4g/
=56	=56	=56	=56	=56	=56	=56	=56	=56	=56	=56	=56
4G\	.	4g/	.	4g/|	.	4g/	.	4gg\	.	4gg\	4gg\
4GG/	.	4G/	.	4G/	.	4G/	.	4g/	.	4g/	4g/
!LO:LB:g=original	!	!	!	!	!	!	!	!	!	!	!
=57	=57	=57	=57	=57	=57	=57	=57	=57	=57	=57	=57
8r	.	8r	.	8r	.	8r	.	8r	.	8r	8r
8C/L	.	8c/L	.	8c/L	.	8cc\L	.	8cc\L	.	8c/L	8c/L
8D/	.	8d/	.	8d/	.	8dd\	.	8dd\	.	8d/	8d/
8E/J	.	8e/J	.	8e/J	.	8ee\J	.	8ee\J	.	8e/J	8e/J
=58	=58	=58	=58	=58	=58	=58	=58	=58	=58	=58	=58
8F\L	.	8f/L	.	8f/L	.	8ff\L	.	8ff\L	.	8f/L	8f/L
8G\	.	8g/	.	8g/	.	8ee\	.	8gg\	.	8g/	8g/
8A\	.	8a/	.	8a/	.	8ff\	.	8aa\	.	8a/	8a/
8B\J	.	8b/J	.	8b/J	.	8dd\J	.	8bb\J	.	8b/J	8b/J
!	!	!	!	!	!	!	!	!	!	!LO:LB:g=original	!
=59	=59	=59	=59	=59	=59	=59	=59	=59	=59	=59	=59
!	!	!LO:TX:t=P:problem=mixed beam	!	!LO:TX:t=P:problem=mixed beam	!	!	!	!	!	!	!
8c\L	.	8cc\L	.	8cc\L	.	8ee\L	.	8ccc\L	.	8cc\L	8cc\L
8E\	.	8e/	.	8e/	.	8ee\	.	8ee\|	.	8ee\	8ee\
8D\	.	8d/	.	8d/	.	8dd\	.	8dd\|	.	8dd\	8dd\
8C\J	.	8c/J	.	8c/J	.	8cc\J	.	8cc\J|	.	8cc\J	8cc\J
=60	=60	=60	=60	=60	=60	=60	=60	=60	=60	=60	=60
4G\	.	4g/	.	4g/	.	4g/	.	4gg\	.	4gg\	4gg\
4GG/	.	4G/	.	4G/	.	4G/	.	4g/	.	4g/	4g/
=61	=61	=61	=61	=61	=61	=61	=61	=61	=61	=61	=61
4G\	.	4g/	.	4g/	.	4g/	.	4gg\	.	4gg\	4gg\
4GG/	.	4G/	.	4G/	.	4G/	.	4g/	.	4g/	4g/
=62	=62	=62	=62	=62	=62	=62	=62	=62	=62	=62	=62
*	*	*^	*	*^	*	*	*	*	*	*	*
*	*	*	*^	*	*	*^	*	*	*	*	*	*	*
*	*	*	*	*^	*	*	*	*^	*	*	*	*	*	*	*
4C/	.	4ee/	4cc/	4e/	4c\	.	4ee/	4cc/	4e/	4c\	.	4c/	.	4cc\	.	4cc\	4cc\
4r	.	4r	4rcyy	4ryy	4ryy	.	4r	4rcyy	4ryy	4ryy	.	4r	.	4r	.	4r	4r
!	!	!	!	!	!	!	!LO:LB:g=original	!	!	!	!	!	!	!	!	!	!
*	*	*	*	*v	*v	*	*	*	*	*	*	*	*	*	*	*	*
*	*	*v	*v	*v	*	*	*	*	*	*	*	*	*	*	*	*
*	*	*	*	*	*	*v	*v	*	*	*	*	*	*	*
*	*	*	*	*v	*v	*v	*	*	*	*	*	*	*
!	!	!LO:LB:g=original	!	!	!	!	!	!LO:LB:g=original	!	!	!LO:LB:g=original
=63||	=63||	=63||	=63||	=63||	=63||	=63||	=63||	=63||	=63||	=63||	=63||
!LO:TX:b:t=5	!	!	!LO:DY:a	!	!LO:DY:a	!LO:TX:b:t=25.	!	!	!	!LO:TX:a:t=Soli	!LO:TX:b:t=Soli
!LO:N:vis=00	!	!	!	!	!LO:DY:t=Po&colon;	!LO:N:vis=00	!	!LO:N:vis=00	!	!	!
0r	.	4c/|	p	4c/|	p	0r	.	0r	.	4.cc\	8gg\
!	!	!	!	!	!	!	!	!LO:TX:b:t=25	!	!	!
.	.	.	.	.	.	.	.	.	.	.	4aa\
.	.	4f/|	.	4f/|	.	.	.	.	.	.	.
.	.	.	.	.	.	.	.	.	.	8a/	8cc\
=64	=64	=64	=64	=64	=64	=64	=64	=64	=64	=64	=64
.	.	4g/	.	4g/|	.	.	.	.	.	4d/	8b/
.	.	.	.	.	.	.	.	.	.	.	4cc\
!	!	!	!	!	!	!	!	!	!	!LO:TX:t=P:problem=mixed beam	!
.	.	4e/	.	4e/	.	.	.	.	.	8e/L	.
.	.	.	.	.	.	.	.	.	.	[>8cc\J	8g/
=65	=65	=65	=65	=65	=65	=65	=65	=65	=65	=65	=65
.	.	4f/	.	4f/	.	.	.	.	.	8cc\]	8a/
.	.	.	.	.	.	.	.	.	.	.	(<16qqdd/LL
.	.	.	.	.	.	.	.	.	.	.	16qqee/JJ)
.	.	.	.	.	.	.	.	.	.	4cc\	(>8ff\L
.	.	4g/	.	4g/	.	.	.	.	.	.	8ee\
.	.	.	.	.	.	.	.	.	.	8b/	8dd\J)
=66	=66	=66	=66	=66	=66	=66	=66	=66	=66	=66	=66
.	.	4e/	.	4e/	.	.	.	.	.	16cc/LL	(>16cc\LL
.	.	.	.	.	.	.	.	.	.	16g/JJ	16b\JJ)
.	.	.	.	.	.	.	.	.	.	.	8qqb/
.	.	.	.	.	.	.	.	.	.	4e/	4cc\
.	.	4c/	.	4c/	.	.	.	.	.	.	.
.	.	.	.	.	.	.	.	.	.	[>8cc\	8g/
!	!	!	!	!	!	!	!	!	!	!LO:LB:g=original	!
=67	=67	=67	=67	=67	=67	=67	=67	=67	=67	=67	=67
!	!	!	!	!	!	!LO:N:vis=00	!	!LO:N:vis=00	!	!	!
2r	.	4f/	.	4f/	.	0r	.	0r	.	8cc\]	8a/
.	.	.	.	.	.	.	.	.	.	.	(<16qqff/LL
.	.	.	.	.	.	.	.	.	.	.	16qqgg/JJ)
.	.	.	.	.	.	.	.	.	.	4cc\	(>8aa\L
.	.	4g/	.	4g/	.	.	.	.	.	.	8gg\
.	.	.	.	.	.	.	.	.	.	8b\	8ff\J)
=68	=68	=68	=68	=68	=68	=68	=68	=68	=68	=68	=68
!	!	!LO:TX:t=P:problem=mixed beam	!	!LO:TX:t=P:problem=mixed beam	!	!	!	!	!	!	!
8r	.	8c/L	.	8c/L	.	.	.	.	.	4cc\	(>16ee\LL
.	.	.	.	.	.	.	.	.	.	.	16dd\J
!	!	!	!LO:DY:a	!	!LO:DY:a	!	!	!	!	!	!
!	!LO:DY:b	!	!LO:DY:t=for&colon;	!	!LO:DY:t=for&colon;	!	!	!	!	!	!
!	!LO:DY:t=for&colon;	!	!	!	!	!	!	!	!	!	!
8c\L	f	8cc\	f	8cc\	f	.	.	.	.	.	8cc\J)
8G\	.	8g\	.	8g\	.	.	.	.	.	4r	4r
8E\J	.	8e\J	.	8e\J	.	.	.	.	.	.	.
!	!	!	!	!	!	!	!	!	!	!	!LO:LB:g=original
=69	=69	=69	=69	=69	=69	=69	=69	=69	=69	=69	=69
!	!	!	!	!	!LO:DY:a	!	!	!	!	!	!
!	!	!	!	!	!LO:DY:t=Po&colon;	!	!	!	!	!	!
4C/	.	4c/	.	4c/	p	.	.	.	.	8cc\	(>16ee\LL
.	.	.	.	.	.	.	.	.	.	.	16cc\JJ)
.	.	.	.	.	.	.	.	.	.	4ee\	4ee\
4r	.	4cc\	.	4cc\	.	.	.	.	.	.	.
.	.	.	.	.	.	.	.	.	.	8a/	8ff#X\
=70	=70	=70	=70	=70	=70	=70	=70	=70	=70	=70	=70
!LO:TX:b:t=2	!	!	!	!	!	!	!	!	!	!	!
!LO:N:vis=0	!	!	!	!	!	!	!	!	!	!	!
1r	.	4b/	.	4b/	.	.	.	.	.	8d/	8gg\
.	.	.	.	.	.	.	.	.	.	4b/	4g/
.	.	4g/	.	4g/	.	.	.	.	.	.	.
.	.	.	.	.	.	.	.	.	.	8g/	8dd\
!	!	!	!	!LO:LB:g=original	!	!	!	!	!	!	!
=71	=71	=71	=71	=71	=71	=71	=71	=71	=71	=71	=71
!	!	!	!	!	!	!LO:N:vis=00	!	!LO:N:vis=00	!	!	!
.	.	4dd\	.	4dd\	.	0r	.	0r	.	16f#X/LL	(<16a/LL
.	.	.	.	.	.	.	.	.	.	16g/JJ	16b/JJ)
.	.	.	.	.	.	.	.	.	.	4a/	4cc\
.	.	4d/	.	8f#X/L	.	.	.	.	.	.	.
.	.	.	.	8g/J	.	.	.	.	.	8g/	8b/
=72	=72	=72	=72	=72	=72	=72	=72	=72	=72	=72	=72
!	!	!LO:TX:t=P:problem=mixed beam	!	!LO:TX:t=P:problem=mixed beam	!	!	!	!	!	!	!
8r	.	8d/L	.	8d/L	.	.	.	.	.	8gT/L	8b/L
!	!	!	!LO:DY:a	!	!LO:DY:a	!	!	!	!	!	!
!	!	!	!	!	!LO:DY:t=for&colon;	!	!	!	!	!	!
8D/L	.	8dd\	f	8dd\	f	.	.	.	.	8f#X/J	8a/J
8BB/	.	8B/	.	8B/	.	.	.	.	.	8r	8r
8GG/J	.	8G/J	.	8G/J	.	.	.	.	.	8b/	8dd\
!	!	!LO:LB:g=original	!	!	!	!	!	!	!	!	!
=73	=73	=73	=73	=73	=73	=73	=73	=73	=73	=73	=73
!	!	!	!LO:DY:a	!	!LO:DY:a	!	!	!	!	!	!
!	!	!	!LO:DY:t=Po&colon;	!	!LO:DY:t=Po&colon;	!	!	!	!	!	!
4C/	.	2c/	p	2c/	p	.	.	.	.	8g/	(>16ee\LL
.	.	.	.	.	.	.	.	.	.	.	16dd\JJ)
.	.	.	.	.	.	.	.	.	.	4ee\	4cc\
4r	.	.	.	.	.	.	.	.	.	.	.
.	.	.	.	.	.	.	.	.	.	8ee\	8b/
!	!	!	!	!	!	!	!	!	!	!LO:LB:g=original	!
=74	=74	=74	=74	=74	=74	=74	=74	=74	=74	=74	=74
!LO:TX:b:t=4	!	!	!	!	!	!	!	!	!	!	!
!LO:N:vis=00	!	!	!	!	!	!	!	!	!	!	!
0r	.	4d/	.	4d/	.	.	.	.	.	(<16f#X/LL	(<16a/LL
.	.	.	.	.	.	.	.	.	.	16g/JJ	16g/JJ)
.	.	.	.	.	.	.	.	.	.	4a/)	4f#X/
.	.	4c/	.	4c/	.	.	.	.	.	.	.
.	.	.	.	.	.	.	.	.	.	.	(<16qqcc/LL
.	.	.	.	.	.	.	.	.	.	.	16qqdd/JJ
.	.	.	.	.	.	.	.	.	.	8a/	8ee\)
!	!	!	!	!	!	!	!	!	!	!	!LO:LB:g=original
=75	=75	=75	=75	=75	=75	=75	=75	=75	=75	=75	=75
!	!	!	!	!	!	!LO:N:vis=00	!	!LO:N:vis=00	!	!	!
.	.	2B/	.	2B/	.	0r	.	0r	.	16b\LL	16dd\LL
.	.	.	.	.	.	.	.	.	.	16cc\JJ	16cc\JJ
.	.	.	.	.	.	.	.	.	.	4dd\	4b/
.	.	.	.	.	.	.	.	.	.	8dd\	8a/
=76	=76	=76	=76	=76	=76	=76	=76	=76	=76	=76	=76
.	.	4c/	.	4c/	.	.	.	.	.	16e/LL	(<16g/LL
.	.	.	.	.	.	.	.	.	.	16f#X/JJ	16f#X/JJ)
.	.	.	.	.	.	.	.	.	.	4g/	4e/
.	.	4B/	.	4B/	.	.	.	.	.	.	.
.	.	.	.	.	.	.	.	.	.	.	(<16qqb/LL
.	.	.	.	.	.	.	.	.	.	.	16qqcc/JJ
.	.	.	.	.	.	.	.	.	.	8g/	8dd)
=77	=77	=77	=77	=77	=77	=77	=77	=77	=77	=77	=77
.	.	4A/	.	4A/	.	.	.	.	.	2ee\	(>16cc\LL
.	.	.	.	.	.	.	.	.	.	.	16dd\
.	.	.	.	.	.	.	.	.	.	.	16ee\)
.	.	.	.	.	.	.	.	.	.	.	16dd\JJ|
.	.	4c/	.	4c/	.	.	.	.	.	.	16cc\LL
.	.	.	.	.	.	.	.	.	.	.	16b\
.	.	.	.	.	.	.	.	.	.	.	16a\
.	.	.	.	.	.	.	.	.	.	.	16g\JJ
!LO:LB:g=original	!	!	!	!	!	!	!	!	!	!	!
=78	=78	=78	=78	=78	=78	=78	=78	=78	=78	=78	=78
!	!	!	!	!	!	!	!	!	!	!	!LO:TX:t=P:problem=mixed beam
.	.	.	.	.	.	.	.	.	.	8qqg\	.
!	!LO:DY:a	!	!	!	!	!	!	!	!	!	!
!	!LO:DY:t=Po&colon;	!	!	!	!	!	!	!	!	!	!
[<2D\	p	[>2d/	.	[>2d/	.	.	.	.	.	[<4f#X/	(>16d\LL
.	.	.	.	.	.	.	.	.	.	.	16cc/
.	.	.	.	.	.	.	.	.	.	.	16ff#X/
.	.	.	.	.	.	.	.	.	.	.	16gg/JJ)
.	.	.	.	.	.	.	.	.	.	16f#/LL]	16aa\LL|
.	.	.	.	.	.	.	.	.	.	16a/	(16cc\
.	.	.	.	.	.	.	.	.	.	16g/	16b\
.	.	.	.	.	.	.	.	.	.	16f#/JJ	16a\JJ)
=79	=79	=79	=79	=79	=79	=79	=79	=79	=79	=79	=79
!	!	!	!	!	!	!	!	!	!	!	!LO:TX:t=P:problem=mixed beam
!	!	!	!	!	!	!LO:N:vis=00	!	!LO:N:vis=00	!	!	!
2D\_<	.	2d/_>	.	2d/_>	.	0r	.	0r	.	[<4g/	(>16d/LL
.	.	.	.	.	.	.	.	.	.	.	16b\
.	.	.	.	.	.	.	.	.	.	.	16gg\
.	.	.	.	.	.	.	.	.	.	.	16aa\JJ)
.	.	.	.	.	.	.	.	.	.	16g/LL]	16bb\LL
.	.	.	.	.	.	.	.	.	.	16b/	(>16dd\
.	.	.	.	.	.	.	.	.	.	16a/	16cc\
.	.	.	.	.	.	.	.	.	.	16g/JJ	16b\JJ)
!	!	!	!	!	!	!	!	!	!	!LO:LB:g=original	!LO:LB:g=original
=80	=80	=80	=80	=80	=80	=80	=80	=80	=80	=80	=80
!	!	!	!	!	!	!	!	!	!	!	!LO:TX:t=P:problem=mixed beam
2D\_<	.	2d/_>	.	2d/_>	.	.	.	.	.	2f#X/	(>16d/LL
.	.	.	.	.	.	.	.	.	.	.	16cc\
.	.	.	.	.	.	.	.	.	.	.	16aa\
.	.	.	.	.	.	.	.	.	.	.	16bb\JJ)
.	.	.	.	.	.	.	.	.	.	.	16ccc\LL
.	.	.	.	.	.	.	.	.	.	.	(>16bb\
.	.	.	.	.	.	.	.	.	.	.	16aa\)
.	.	.	.	.	.	.	.	.	.	.	16gg\JJ
!	!	!	!	!LO:LB:g=original	!	!	!	!	!	!	!
=81	=81	=81	=81	=81	=81	=81	=81	=81	=81	=81	=81
2D\_<	.	2d/_>	.	2d/_>	.	.	.	.	.	[<2a/	(>16ff#X\LL
.	.	.	.	.	.	.	.	.	.	.	16aa\)
.	.	.	.	.	.	.	.	.	.	.	(>16cc\
.	.	.	.	.	.	.	.	.	.	.	16ff#\JJ)
.	.	.	.	.	.	.	.	.	.	.	(<16a/LL
.	.	.	.	.	.	.	.	.	.	.	16cc/)
.	.	.	.	.	.	.	.	.	.	.	(<16f#X/
.	.	.	.	.	.	.	.	.	.	.	16a/JJ)
=82	=82	=82	=82	=82	=82	=82	=82	=82	=82	=82	=82
!	!	!	!	!	!	!	!	!	!	!	!LO:TX:t=P:problem=mixed beam
8D\L]	.	4d/]	.	4d/]	.	.	.	.	.	4a/]	16d/LL
.	.	.	.	.	.	.	.	.	.	.	16ee\JJ
.	.	.	.	.	.	.	.	.	.	.	8qqee/
8F#X\	.	.	.	.	.	.	.	.	.	.	4dd\
8G\	.	4r	.	4r	.	.	.	.	.	8b/L	.
8G\J	.	.	.	.	.	.	.	.	.	8a/J	8cc#X\
=83	=83	=83	=83	=83	=83	=83	=83	=83	=83	=83	=83
!	!	!LO:TX:b:t=5.	!	!LO:TX:b:t=5.	!	!	!	!	!	!	!
!	!	!LO:N:vis=00	!	!LO:N:vis=00	!	!LO:N:vis=00	!	!LO:N:vis=00	!	!	!
4F#X\	.	0r	.	0r	.	0r	.	0r	.	4a/	(>16ccn\LL
.	.	.	.	.	.	.	.	.	.	.	16ee\JJ)
.	.	.	.	.	.	.	.	.	.	.	(>8cc\L
4D/	.	.	.	.	.	.	.	.	.	8g/L	8b\
.	.	.	.	.	.	.	.	.	.	8f#X/J	8a\J)
=84	=84	=84	=84	=84	=84	=84	=84	=84	=84	=84	=84
!	!	!	!	!	!	!	!	!	!	!	!LO:TUP:b
8GG/L	.	.	.	.	.	.	.	.	.	8g/L	24b/LL|
.	.	.	.	.	.	.	.	.	.	.	24a/|
.	.	.	.	.	.	.	.	.	.	.	24b/JJ|
*	*	*	*	*	*	*	*	*	*	*	*Xtuplet
8AA/	.	.	.	.	.	.	.	.	.	8f#X/	24cc\LL
.	.	.	.	.	.	.	.	.	.	.	24b\
.	.	.	.	.	.	.	.	.	.	.	24cc\JJ
8BB/	.	.	.	.	.	.	.	.	.	8g/	24dd\LL
.	.	.	.	.	.	.	.	.	.	.	24cc\
.	.	.	.	.	.	.	.	.	.	.	24dd\JJ
8C/J	.	.	.	.	.	.	.	.	.	8g/J	24ee\LL
.	.	.	.	.	.	.	.	.	.	.	24dd\
.	.	.	.	.	.	.	.	.	.	.	24ee\JJ
=85	=85	=85	=85	=85	=85	=85	=85	=85	=85	=85	=85
!	!	!	!	!	!	!	!	!	!	!	!LO:TX:t=P:problem=mixed beam
8D\L	.	.	.	.	.	.	.	.	.	16f#X/LL	(>16d/LL
.	.	.	.	.	.	.	.	.	.	16a/JJ	16cc\JJ)
8A\	.	.	.	.	.	.	.	.	.	4a/	4cc\
8F#X\	.	.	.	.	.	.	.	.	.	.	.
8D\J	.	.	.	.	.	.	.	.	.	16g/LL	16b/LL
.	.	.	.	.	.	.	.	.	.	16f#X/JJ	16a/JJ
=86	=86	=86	=86	=86	=86	=86	=86	=86	=86	=86	=86
8GG/L	.	.	.	.	.	.	.	.	.	8g/L	24b/LL
.	.	.	.	.	.	.	.	.	.	.	24a/
.	.	.	.	.	.	.	.	.	.	.	24b/JJ
8AA/	.	.	.	.	.	.	.	.	.	8f#X/	24cc\LL
.	.	.	.	.	.	.	.	.	.	.	24b\
.	.	.	.	.	.	.	.	.	.	.	24cc\JJ
8BB/	.	.	.	.	.	.	.	.	.	8g/	24dd\LL
.	.	.	.	.	.	.	.	.	.	.	24cc\
.	.	.	.	.	.	.	.	.	.	.	24dd\JJ
8C/J	.	.	.	.	.	.	.	.	.	[<8g/J	24ee\LL
.	.	.	.	.	.	.	.	.	.	.	24dd\
.	.	.	.	.	.	.	.	.	.	.	24ee\JJ
!	!	!	!	!	!	!	!	!	!	!LO:LB:g=original	!
=87	=87	=87	=87	=87	=87	=87	=87	=87	=87	=87	=87
!LO:TX:t=P:problem=mixed beam	!LO:DY:a	!	!	!	!	!	!	!	!	!	!
!	!LO:DY:t=for&colon;	!	!	!	!	!	!	!	!	!	!
8D\L	f	2r	.	2r	.	2r	.	2r	.	4g/]	4d/
8G\	.	.	.	.	.	.	.	.	.	.	.
8D\	.	.	.	.	.	.	.	.	.	4f#Xt/	4aT/
8DD/J	.	.	.	.	.	.	.	.	.	.	.
!	!	!	!	!	!	!LO:LB:g=original	!	!	!	!	!LO:LB:g=original
=88	=88	=88	=88	=88	=88	=88	=88	=88	=88	=88	=88
!	!LO:DY:a	!	!LO:DY:a	!	!LO:DY:a	!	!	!	!	!LO:TX:b:t=Tutti	!
!	!LO:DY:t=fort(issi)mo	!	!LO:DY:t=for&colon;	!	!LO:DY:t=fort(issi)mo	!	!	!	!	!	!
4G\	f	4g/|	f	4g/|	ff	4g/	.	4gg\	.	4g/	4g/
!	!	!	!	!	!	!	!	!	!	!	!LO:TX:b:t=Tutti
4GG/	.	4G/	.	4G/|	.	4G/	.	4g/	.	4r	4r
=89	=89	=89	=89	=89	=89	=89	=89	=89	=89	=89	=89
4G\	.	4g/	.	4g/|	.	4g/	.	4gg\	.	4gg\	4gg\
4GG/	.	4G/	.	4G/|	.	4G/	.	4g/	.	4g/	4g/
=90	=90	=90	=90	=90	=90	=90	=90	=90	=90	=90	=90
8r	.	8r	.	8r	.	4r	.	4r	.	8r	8r
8GG/L	.	8g/L	.	8g/L	.	.	.	.	.	8g/L	8g/L
8AA/	.	8a/	.	8a/	.	8r	.	8r	.	8a/	8a/
8BB/J	.	8b/J	.	8b/J	.	8g/	.	8dd\	.	8b/J	8b/J
!LO:LB:g=original	!	!LO:LB:g=original	!	!	!	!	!	!	!	!	!
=91	=91	=91	=91	=91	=91	=91	=91	=91	=91	=91	=91
8C\L	.	8cc\L	.	8cc\L	.	8cc\L	.	8cc\L	.	8cc\L	8cc\L
8D\	.	8dd\	.	8dd\	.	8dd\	.	8dd\	.	8dd\	8dd\
8E\	.	8ee\	.	8ee\	.	8ee\	.	8ee\	.	8ee\	8ee\
8F#X\J	.	8ff#X\J	.	8ff#X\J	.	8ff#X\J	.	8ff#X\J	.	8ff#X\J	8ff#X\J
=92	=92	=92	=92	=92	=92	=92	=92	=92	=92	=92	=92
!LO:TX:t=P:problem=mixed beam	!	!LO:TX:t=P:problem=mixed beam	!	!LO:TX:t=P:problem=mixed beam	!	!LO:TX:t=P:problem=mixed beam	!	!	!	!LO:TX:t=P:problem=mixed beam	!LO:TX:t=P:problem=mixed beam
8G\L	.	8gg\L	.	8gg\L	.	8gg\L	.	8gg\L	.	8gg\L	8gg\L
8BB/	.	8b/	.	8b/	.	8g/	.	8bb\	.	8b/	8b/
8AA/	.	8a/	.	8a/	.	8g/	.	8aa\	.	8a/	8a/
8GG/J	.	8g/J	.	8g/J	.	8g/J	.	8gg\J	.	8g/J	8g/J
=93	=93	=93	=93	=93	=93	=93	=93	=93	=93	=93	=93
4D\	.	4dd\	.	4dd\	.	4dd\	.	4ddd\	.	4dd\	4dd\
4DD/	.	4d/	.	4d/	.	4dd\	.	4dd\	.	4d/	4d/
!	!	!	!	!LO:LB:g=original	!	!	!	!	!	!	!
=94	=94	=94	=94	=94	=94	=94	=94	=94	=94	=94	=94
4D\	.	4dd\	.	4dd\	.	4dd\	.	4ddd\	.	4dd\	4dd\
4DD/	.	4d/	.	4d/	.	4dd\	.	4dd\	.	4d/	4d/
=95	=95	=95	=95	=95	=95	=95	=95	=95	=95	=95	=95
8r	.	8r	.	8r	.	4r	.	4r	.	8r	8r
8GG/L	.	8G/L	.	8G/L	.	.	.	.	.	8g/L	8g/L
8AA/	.	8A/	.	8A/	.	8r	.	8r	.	8a/	8a/
8BB/J	.	8B/J	.	8B/J	.	8g/	.	8dd\	.	8b/J	8b/J
!	!	!	!	!	!	!	!	!	!	!LO:LB:g=original	!LO:LB:g=original
=96	=96	=96	=96	=96	=96	=96	=96	=96	=96	=96	=96
8C\L	.	8c/L	.	8c/L	.	8cc\L	.	8cc\L	.	8cc\L	8cc\L
8D\	.	8d/	.	8d/	.	8dd\	.	8dd\	.	8dd\	8dd\
8E\	.	8e/	.	8e/	.	8ee\	.	8ee\	.	8ee\	8ee\
8F#X\J	.	8f#X/J	.	8f#X/J	.	8ff#X\J	.	8ff#X\J	.	8ff#X\J	8ff#X\J
=97	=97	=97	=97	=97	=97	=97	=97	=97	=97	=97	=97
!LO:TX:t=P:problem=mixed beam	!	!	!	!	!	!LO:TX:t=P:problem=mixed beam	!	!	!	!LO:TX:t=P:problem=mixed beam	!LO:TX:t=P:problem=mixed beam
8G\L	.	8g/L	.	8g/L	.	8gg\L	.	8gg\L	.	8gg\L	8gg\L
8BB/	.	8B/	.	8B/	.	8g/	.	8bb\	.	8b/	8b/
8AA/	.	8A/	.	8A/	.	8g/	.	8aa\	.	8a/	8a/
8GG/J	.	8G/J	.	8G/J	.	8g/J	.	8gg\J	.	8g\J	8g/J
=98	=98	=98	=98	=98	=98	=98	=98	=98	=98	=98	=98
8qqC#X/	.	8qqc#X\	.	8qqc#X\	.	.	.	.	.	8qqcc#X/	8qqcc#X/
2D;\	.	2d;/	.	2d;/	.	2dd;\	.	2ff#X;\	.	2dd;\	2dd;>\
!	!	!	!	!	!	!	!	!LO:LB:g=original	!	!	!
=99	=99	=99	=99	=99	=99	=99	=99	=99	=99	=99	=99
!LO:TX:b:t=3	!	!	!LO:DY:a	!	!LO:DY:a	!LO:TX:b:t=8.	!	!	!	!LO:TX:a:t=Soli	!LO:TX:b:t=Soli
!LO:N:vis=0	!	!	!LO:DY:t=Po&colon;	!	!LO:DY:t=Po&colon;	!LO:N:vis=00	!	!LO:N:vis=00	!	!	!
1r	.	8G/L	p	8G/L	p	0r	.	0r	.	(>16b\LL	(>16dd\LL
.	.	.	.	.	.	.	.	.	.	16cc\JJ)	16ee\JJ)
.	.	8G/	.	8G/	.	.	.	.	.	4.dd\	4.ff\
.	.	8G/	.	8G/	.	.	.	.	.	.	.
.	.	8G/J	.	8G/J	.	.	.	.	.	.	.
=100	=100	=100	=100	=100	=100	=100	=100	=100	=100	=100	=100
.	.	8G/L	.	8G/L	.	.	.	.	.	(>8b\	8g/
.	.	8G/	.	8G/	.	.	.	.	.	4.dd\)	4.ff\
.	.	8G/	.	8G/	.	.	.	.	.	.	.
.	.	8G/J	.	8G/J	.	.	.	.	.	.	.
!	!	!LO:LB:g=original	!	!LO:LB:g=original	!	!	!	!	!	!	!
=101	=101	=101	=101	=101	=101	=101	=101	=101	=101	=101	=101
!LO:N:vis=1	!	!	!	!	!	!	!	!	!	!	!
2r	.	8G/L	.	8G/L	.	.	.	.	.	8b\	16ddd\LL
.	.	.	.	.	.	.	.	.	.	.	(>16ccc\
.	.	8G/	.	8G/	.	.	.	.	.	4dd\	16bb\
.	.	.	.	.	.	.	.	.	.	.	16aa\JJ)
.	.	8G/	.	8G/	.	.	.	.	.	.	(>16gg\LL
.	.	.	.	.	.	.	.	.	.	.	16ff\
.	.	8G/J	.	8G/J	.	.	.	.	.	16cc\LL	16ee\)
.	.	.	.	.	.	.	.	.	.	16dd\JJ	16ff\JJ
=102	=102	=102	=102	=102	=102	=102	=102	=102	=102	=102	=102
!	!	!	!	!LO:TX:t=P:problem=mixed beam	!	!	!	!	!	!	!
.	.	.	.	.	.	.	.	.	.	8qqee/	8qqgg/
!	!	!LO:TX:t=P:problem=mixed beam	!	!	!	!	!	!	!	!	!
8r	.	8c/L	.	8c/L	.	.	.	.	.	8ddT\L	8ffT\L
!LO:TX:t=P:problem=mixed beam	!	!	!LO:DY:a	!	!LO:DY:a	!	!	!	!	!	!
!	!LO:DY:b	!	!LO:DY:t=for&colon;	!	!LO:DY:t=for&colon;	!	!	!	!	!	!
!	!LO:DY:t=for&colon;	!	!	!	!	!	!	!	!	!	!
8c\L	f	8cc\	f	8cc\	f	.	.	.	.	8cc\J	8ee\J
8C/	.	8c/	.	8c/	.	.	.	.	.	4r	4r
8BB/J	.	8B/J	.	8B/J	.	.	.	.	.	.	.
!	!	!	!	!	!	!	!	!	!	!LO:LB:g=original	!LO:PB:g=original
=103	=103	=103	=103	=103	=103	=103	=103	=103	=103	=103	=103
!	!	!	!LO:DY:a	!	!LO:DY:a	!LO:N:vis=00	!	!LO:N:vis=00	!	!	!
!	!	!	!LO:DY:t=Po&colon;	!	!LO:DY:t=Po&colon;	!	!	!	!	!	!
4AA/	.	8A/L	p	8A/L	p	0r	.	0r	.	(>16cc#X\LL	(>16ee\LL
.	.	.	.	.	.	.	.	.	.	16dd\JJ)	16ff#X\JJ)
.	.	8A/	.	8A/	.	.	.	.	.	4.ee\	4.gg\
4r	.	8A/	.	8A/	.	.	.	.	.	.	.
.	.	8A/J	.	8A/J	.	.	.	.	.	.	.
=104	=104	=104	=104	=104	=104	=104	=104	=104	=104	=104	=104
!LO:TX:b:t=2	!	!	!	!	!	!	!	!	!	!	!
!LO:N:vis=1	!	!	!	!	!	!	!	!	!	!	!
1r	.	8A/L	.	8A/L	.	.	.	.	.	(>8cc#X\	(>8a/
.	.	8A/	.	8A/	.	.	.	.	.	4.ee\)	4.gg\)
.	.	8A/	.	8A/	.	.	.	.	.	.	.
.	.	8A/J	.	8A/J	.	.	.	.	.	.	.
=105	=105	=105	=105	=105	=105	=105	=105	=105	=105	=105	=105
.	.	8A/L	.	8A/L	.	.	.	.	.	8cc#X\	(>16eee\LL
.	.	.	.	.	.	.	.	.	.	.	16ddd\)
.	.	8A/	.	8A/	.	.	.	.	.	4ee\	(>16ccc#X\
.	.	.	.	.	.	.	.	.	.	.	16bb\JJ)
.	.	8A/	.	8A/	.	.	.	.	.	.	(>16aa\LL
.	.	.	.	.	.	.	.	.	.	.	16gg\
.	.	8A/J	.	8A/J	.	.	.	.	.	(>16dd\LL	16ff#X\)
.	.	.	.	.	.	.	.	.	.	16ee\JJ)	16gg\JJ
!LO:LB:g=original	!	!	!	!	!	!	!	!	!	!	!
=106	=106	=106	=106	=106	=106	=106	=106	=106	=106	=106	=106
!	!	!LO:TX:t=P:problem=mixed beam	!	!LO:TX:t=P:problem=mixed beam	!	!	!	!	!	!	!
.	.	.	.	.	.	.	.	.	.	8qqff#X/	8qqaa/
8r	.	8d/L	.	8d/L	.	.	.	.	.	8eet\L	8ggT\L
!	!	!	!LO:DY:a	!	!LO:DY:a	!	!	!	!	!	!
!	!	!	!LO:DY:t=for&colon;	!	!LO:DY:t=for&colon;	!	!	!	!	!	!
8d\L	.	8dd\	f	8dd\	f	.	.	.	.	8dd\J	8ff#X\J
8A\	.	8a/	.	8a\	.	.	.	.	.	4r	4r
8F#X\J	.	8f#X/J	.	8f#X\J	.	.	.	.	.	.	.
!	!	!	!	!	!	!LO:LB:g=original	!	!	!	!	!
=107	=107	=107	=107	=107	=107	=107	=107	=107	=107	=107	=107
!	!LO:DY:a	!LO:TX:t=P:problem=mixed beam	!LO:DY:a	!	!LO:DY:a	!	!	!	!	!LO:TX:t=P:problem=mixed beam	!
!	!LO:DY:t=Po&colon;	!	!LO:DY:t=Po&colon;	!	!LO:DY:t=Po&colon;	!	!LO:DY:t=Po&colon;	!	!LO:DY:t=Po&colon;	!	!
8D\L	p	8d/L	p	8a/L	p	2dd\	p	2dd\	p	8ff#X\L	16aa\LL
.	.	.	.	.	.	.	.	.	.	.	(>16gg\
8D\	.	8dd\	.	8a/	.	.	.	.	.	8aa\	16ff#X\)
.	.	.	.	.	.	.	.	.	.	.	16ee\JJ
8D\	.	8dd\	.	8a/	.	.	.	.	.	8a/	8dd\L
8D\J	.	8dd\J	.	8a/J	.	.	.	.	.	8a/J	8cc\J
!	!	!	!	!LO:LB:g=original	!	!	!	!	!	!	!
=108	=108	=108	=108	=108	=108	=108	=108	=108	=108	=108	=108
.	.	.	.	.	.	.	.	.	.	.	8qqdd/
8G\L	.	8dd\L	.	8b/L	.	2g/	.	2dd\	.	8a/	8cc\
8G\	.	8dd\	.	8b/	.	.	.	.	.	4.g/	4.b/
8G\	.	8dd\	.	8b/	.	.	.	.	.	.	.
8G\J	.	8dd\J	.	8b/J	.	.	.	.	.	.	.
!	!	!	!	!	!	!	!	!	!	!	!LO:LB:g=original
=109	=109	=109	=109	=109	=109	=109	=109	=109	=109	=109	=109
!	!	!LO:TX:t=P:problem=mixed beam	!	!	!	!	!	!	!	!LO:TX:t=P:problem=mixed beam	!
8GG/L	.	8dd\L	.	8b/L	.	2g/	.	2dd\	.	8b\L	16dd\LL
.	.	.	.	.	.	.	.	.	.	.	(>16cc\
8GG/	.	8d/	.	8b/	.	.	.	.	.	8dd/	16b\)
.	.	.	.	.	.	.	.	.	.	.	16a\JJ
8GG/	.	8d/	.	8b/	.	.	.	.	.	8d/	8g/L
!	!	!	!	!	!	!	!	!	!	!LO:TX:a:t=SIC&colon;custos d	!
8GG/J	.	8d/J	.	8g/J	.	.	.	.	.	8d/J	8f/J
!	!	!LO:LB:g=original	!	!	!	!	!	!	!	!LO:PB:g=original	!
=110	=110	=110	=110	=110	=110	=110	=110	=110	=110	=110	=110
.	.	.	.	.	.	.	.	.	.	.	8qqg\
8C/L	.	8e/L	.	8g/L	.	2cc\	.	2ee\	.	8d/	8f/
8C/	.	8e/	.	8g/	.	.	.	.	.	4.c/	4.e/
8C/	.	8e/	.	8g/	.	.	.	.	.	.	.
8C/J	.	8e/J	.	8g/J	.	.	.	.	.	.	.
=111	=111	=111	=111	=111	=111	=111	=111	=111	=111	=111	=111
!	!	!LO:TX:t=P:problem=mixed beam	!	!	!	!	!	!	!	!LO:TX:t=P:problem=mixed beam	!
8C/L	.	8c/L	.	8g/L	.	2e/	.	2cc\	.	8ee\L	16gg\LL
.	.	.	.	.	.	.	.	.	.	.	(>16ff\
8C/	.	8cc\	.	8g/	.	.	.	.	.	8gg\	16ee\
.	.	.	.	.	.	.	.	.	.	.	16dd\JJ)
8C/	.	8cc/	.	8g/	.	.	.	.	.	8g/	8cc\L
8C/J	.	8cc\J	.	8g/J	.	.	.	.	.	8g/J	8b-X\J
=112	=112	=112	=112	=112	=112	=112	=112	=112	=112	=112	=112
.	.	.	.	.	.	.	.	.	.	.	8qqcc/
8F\L	.	8cc\L	.	8a/L	.	2c/	.	2cc\	.	8g/	8b\
8F\	.	8cc\	.	8a/	.	.	.	.	.	4.f/	4.a/
8F\	.	8cc\	.	8a/	.	.	.	.	.	.	.
8F\J	.	8cc\J	.	8a/J	.	.	.	.	.	.	.
=113	=113	=113	=113	=113	=113	=113	=113	=113	=113	=113	=113
8FF/L	.	8cc\L	.	8a/L	.	8c/	.	2cc\	.	8a\L	(>16cc\LL
.	.	.	.	.	.	.	.	.	.	.	16b-X\
8FF/	.	8cc\	.	8a/	.	4cc\	.	.	.	8cc\	16a\
.	.	.	.	.	.	.	.	.	.	.	16g\JJ)
8FF/	.	8cc\	.	8a/	.	.	.	.	.	8cc\	8f/L
8FF/J	.	8cc\J	.	8f/J	.	8cc\	.	.	.	8cc\J	8e-X/J
=114	=114	=114	=114	=114	=114	=114	=114	=114	=114	=114	=114
.	.	.	.	.	.	.	.	.	.	.	8qqf/
8BB-X/L	.	8dd\L	.	8f/L	.	2dd\	.	2dd\	.	8cc\	8e/|
8BB-/	.	8dd\	.	8f/	.	.	.	.	.	4.b-X/	4.d/
8BB-/	.	8dd\	.	8f/	.	.	.	.	.	.	.
8BB-/J	.	8dd\J	.	8f/J	.	.	.	.	.	.	.
!	!	!	!	!	!	!	!	!	!	!	!LO:LB:g=original
=115	=115	=115	=115	=115	=115	=115	=115	=115	=115	=115	=115
8D\L	.	8a/L	.	8ff\L	.	2r	.	2r	.	8r	16ff\LL
.	.	.	.	.	.	.	.	.	.	.	(>16ee\
8D\	.	8a/	.	8ff\	.	.	.	.	.	16ff\LL	16dd\
.	.	.	.	.	.	.	.	.	.	16ee\JJ	16cc\JJ)
8D\	.	8b/	.	8ff\	.	.	.	.	.	16dd\LL	(<16bn/LL
.	.	.	.	.	.	.	.	.	.	16cc\	16a/
8D\J	.	8b/J	.	8ff\J	.	.	.	.	.	16bn\	16g#X/)
.	.	.	.	.	.	.	.	.	.	16cc\JJ	16a/JJ
!	!	!	!	!LO:PB:g=original	!	!	!	!	!	!	!
=116	=116	=116	=116	=116	=116	=116	=116	=116	=116	=116	=116
8E\L	.	8g#X/L	.	8b/L	.	8e/L	.	8e/L	.	8b/L	(<16g#X/LL
.	.	.	.	.	.	.	.	.	.	.	16f/J
8E\	.	8g#/	.	8b/	.	16e/L	.	16e/L	.	8g#X/	8e/J)
.	.	.	.	.	.	16e/JJ	.	16e/JJ	.	.	.
8E\	.	8g#/	.	8b/	.	8e/L	.	8e/L	.	8g#/	8r
8E\J	.	8g#/J	.	8b/J	.	8e/J	.	8e/J	.	8g#/J	8e/
!	!	!	!	!	!	!	!	!	!	!LO:LB:g=original	!
=117	=117	=117	=117	=117	=117	=117	=117	=117	=117	=117	=117
*	*	*	*	*	*	*	*	*	*	*Xtuplet	*
!	!	!LO:SIC:o=8g/L	!	!	!	!	!	!	!	!LO:TUP:b:problem=klamra łukowa	!
8E\L	.	8g#	.	8e/L	.	4e/	.	4e/	.	(<24b/LL	(<24g#X/LL
.	.	.	.	.	.	.	.	.	.	24a/	24a/
.	.	.	.	.	.	.	.	.	.	24g#X/JJ)	24b/JJ)
!	!	!LO:SIC:o=8g/	!	!	!	!	!	!	!	!	!
8E\	.	8g#	.	8e/	.	.	.	.	.	4g#/	4b/
!	!	!LO:SIC:o=8g/	!	!	!	!	!	!	!	!	!
8E\	.	8g#	.	8e/	.	4r	.	4r	.	.	.
!	!	!LO:SIC:o=8g/J	!	!	!	!	!	!	!	!	!
8E\J	.	8g#	.	8e/J	.	.	.	.	.	8b/	8g#/
!LO:LB:g=original	!	!	!	!	!	!	!	!	!	!	!
=118	=118	=118	=118	=118	=118	=118	=118	=118	=118	=118	=118
!	!	!	!	!	!	!LO:TX:b:t=4.	!	!LO:N:vis=00	!	!	!
!	!	!	!	!	!	!LO:N:vis=00	!	!	!	!	!
8AA/L	.	8a/L	.	8e/L	.	0r	.	0r	.	(>16cc\LL	16a/LL
.	.	.	.	.	.	.	.	.	.	16b\JJ)	16g#X/JJ
!	!	!	!	!	!	!	!	!LO:TX:b:t=4	!	!	!
8AA/	.	8a/	.	8e/	.	.	.	.	.	4cc\	4a/
8AA/	.	8a/	.	8e/	.	.	.	.	.	.	.
8AA/J	.	8a/J	.	8e/J	.	.	.	.	.	8cc\	8a/
=119	=119	=119	=119	=119	=119	=119	=119	=119	=119	=119	=119
!LO:TX:t=P:problem=mixed beam	!	!	!	!	!	!	!	!	!	!LO:TUP:b:problem=klamra łukowa	!
8AA/L	.	8a/L	.	8e/L	.	.	.	.	.	(<24e/LL	(>24cc#X\LL
.	.	.	.	.	.	.	.	.	.	24d/	24dd\
.	.	.	.	.	.	.	.	.	.	24c#X/JJ)	24ee\JJ)
8A\	.	8a/	.	8e/	.	.	.	.	.	4c#/	4ee\
8A\	.	8a/	.	8e/	.	.	.	.	.	.	.
8A\J	.	8a/J	.	8e/J	.	.	.	.	.	8e/	8cc#\
!	!	!LO:LB:g=original	!	!	!	!	!	!	!	!	!LO:LB:g=original
=120	=120	=120	=120	=120	=120	=120	=120	=120	=120	=120	=120
8D\L	.	8a/L	.	8f/L	.	.	.	.	.	(<16f/LL	16dd\LL
.	.	.	.	.	.	.	.	.	.	16e/JJ)	16cc#X\J
8D\	.	8a/	.	8f/	.	.	.	.	.	4f/	8dd\J
8D\	.	8a/	.	8f/	.	.	.	.	.	.	8r
8D\J	.	8a/J	.	8f/J	.	.	.	.	.	8a/	8ff\
=121	=121	=121	=121	=121	=121	=121	=121	=121	=121	=121	=121
8D\L	.	8a/L	.	8f/L	.	.	.	.	.	8a/L	16ff\LL
.	.	.	.	.	.	.	.	.	.	.	(>16ee\
8D\	.	8a/	.	8f/	.	.	.	.	.	8a/	16dd\
.	.	.	.	.	.	.	.	.	.	.	16cc\JJ)
8D\	.	8a/	.	8f/	.	.	.	.	.	8b/	16dd\LL
.	.	.	.	.	.	.	.	.	.	.	(>16cc\
8D\J	.	8a/J	.	8f/J	.	.	.	.	.	8b/J	16b\)
.	.	.	.	.	.	.	.	.	.	.	16a\JJ
=122	=122	=122	=122	=122	=122	=122	=122	=122	=122	=122	=122
8E\L	.	8g#X/L	.	8B/L	.	8e/	.	8e/	.	8b/L	16g#X/LL
.	.	.	.	.	.	.	.	.	.	.	16e/
8E\	.	8b/	.	8g#X/	.	8r	.	8r	.	8b/	16f/
.	.	.	.	.	.	.	.	.	.	.	16g#/JJ
8E\	.	8a/	.	8a/	.	8e/	.	8e/	.	8a/	16a/LL
.	.	.	.	.	.	.	.	.	.	.	16e/
8E\J	.	8g#/J	.	8b/J	.	8r	.	8r	.	8g#X/J	16b/
.	.	.	.	.	.	.	.	.	.	.	16e/JJ
!	!	!	!	!LO:LB:g=original	!	!	!	!LO:LB:g=original	!	!LO:LB:g=original	!
=123	=123	=123	=123	=123	=123	=123	=123	=123	=123	=123	=123
8AA/	.	8a/	.	8cc\	.	8e/	.	8cc\	.	8a/	16cc\LL
.	.	.	.	.	.	.	.	.	.	.	16a\
8r	.	8r	.	8r	.	8r	.	8r	.	8r	16b\
.	.	.	.	.	.	.	.	.	.	.	16cc\JJ
8BB/	.	8g#X/	.	8dd\	.	8e/	.	8dd\	.	8g#X/	16dd\LL
.	.	.	.	.	.	.	.	.	.	.	16b\
8r	.	8r	.	8r	.	8r	.	8r	.	8r	16cc\
.	.	.	.	.	.	.	.	.	.	.	16dd\JJ
=124	=124	=124	=124	=124	=124	=124	=124	=124	=124	=124	=124
8C/	.	8e/	.	8ee\	.	8cc\	.	8ee\	.	8e/	16ee\LL
.	.	.	.	.	.	.	.	.	.	.	16cc\
8r	.	8r	.	8r	.	8r	.	8r	.	8r	16dd\
.	.	.	.	.	.	.	.	.	.	.	16ee\JJ
8GG#X/	.	8d/	.	8ff\	.	8dd\	.	8ff\	.	8d/	16ff\LL
.	.	.	.	.	.	.	.	.	.	.	16dd\
8r	.	8r	.	8r	.	8r	.	8r	.	8r	16ee\
.	.	.	.	.	.	.	.	.	.	.	16ff\JJ
!	!	!	!	!	!	!	!	!	!	!	!LO:LB:g=original
=125	=125	=125	=125	=125	=125	=125	=125	=125	=125	=125	=125
8AA/L	.	4c/	.	4ee\	.	8cc\	.	8ee\	.	4.c/	16ee\LL
.	.	.	.	.	.	.	.	.	.	.	16aa\
8BB/	.	.	.	.	.	8r	.	8r	.	.	16gg\
.	.	.	.	.	.	.	.	.	.	.	16ff\JJ
!	!LO:DY:t=for&colon;	!	!	!	!	!	!	!	!	!	!
!	!LO:BY:b	!	!	!	!	!	!	!	!	!	!
8C/	f	8r	.	8r	.	4r	.	4r	.	.	16ee\LL
.	.	.	.	.	.	.	.	.	.	.	16dd\
8E/J	.	8b\	.	8dd\	.	.	.	.	.	16a/LL	16cc\
.	.	.	.	.	.	.	.	.	.	16g#X/JJ	16b\JJ
!	!	!	!	!	!	!LO:LB:g=original	!	!	!	!	!
=126	=126	=126	=126	=126	=126	=126	=126	=126	=126	=126	=126
!	!	!	!	!	!	!	!LO:DY:a	!	!	!	!
!LO:TX:t=P:problem=mixed beam	!	!	!	!	!	!	!LO:DY:t=for&colon;	!	!	!	!
8A\L	.	8a/L	.	8cc\L	.	8r	f	8r	.	8e/	(>16cc\LL
.	.	.	.	.	.	.	.	.	.	.	16a\)
!	!	!	!	!	!	!	!	!	!LO:DY:a	!	!
!	!	!	!	!	!	!	!	!	!LO:DY:t=for&colon;	!	!
8D\	.	8a/	.	8dd\	.	16e/LL	.	16e/LL	f	4a/	(>16ff\
.	.	.	.	.	.	16e/JJ	.	16e/JJ	.	.	16dd\JJ)
.	.	.	.	.	.	.	.	.	.	.	8qqcc/
8E\	.	8a/	.	8b\	.	8e/L	.	8e/L	.	.	4bt/
8EE/J	.	8g#X/J	.	8b\J	.	8e/J	.	8e/J	.	8g#X/	.
=127	=127	=127	=127	=127	=127	=127	=127	=127	=127	=127	=127
!	!LO:DY:b	!	!LO:DY:a	!	!LO:DY:a	!	!	!	!	!	!LO:TX:b:t=Tutti
!	!LO:DY:t=fort(issi)mo	!	!LO:DY:t=fort(issi)mo	!	!LO:DY:t=fort(issi)mo	!	!	!	!	!	!
4A\	ff	4a/|	ff	4a/|	ff	4e/	.	4e/	.	4a/	4a/
!	!	!	!	!	!	!	!	!	!	!LO:TX:a:t=Tutti	!
.	.	.	.	.	.	.	.	.	.	.	.
4AA/	.	4A/|	.	4A/|	.	4r	.	4r	.	4r	4r
=128	=128	=128	=128	=128	=128	=128	=128	=128	=128	=128	=128
4A\	.	4a/|	.	4a/	.	4e/	.	4e/	.	4aa\	4aa\
4AA/	.	4A/|	.	4A/	.	4r	.	4r	.	4a/	4a/
!LO:LB:g=original	!	!	!	!	!	!	!	!	!	!	!
=129	=129	=129	=129	=129	=129	=129	=129	=129	=129	=129	=129
!	!	!	!	!	!	!LO:N:vis=0	!	!LO:N:vis=0	!	!	!
!	!	!	!	!	!	!LO:TX:b:t=3.	!	!	!	!	!
8r	.	8r	.	8r	.	1r	.	1r	.	8r	8r
!	!	!	!	!	!	!	!	!LO:TX:b:t=3	!	!	!
8AA/L	.	8A/L	.	8A/L	.	.	.	.	.	8a/L	8a/L
8BB/	.	8B/	.	8B/	.	.	.	.	.	8b/	8b/
8C/J	.	8c/J	.	8c/J	.	.	.	.	.	8cc/J	8cc/J
!	!	!LO:PB:g=original	!	!LO:LB:g=original	!	!	!	!	!	!	!
=130	=130	=130	=130	=130	=130	=130	=130	=130	=130	=130	=130
8D\L	.	8d/L	.	8d/L	.	.	.	.	.	8dd\L	8dd\L
8E\	.	8e/	.	8e/	.	.	.	.	.	8ee\	8ee\
8F#X\	.	8f#X/	.	8f#X/	.	.	.	.	.	8ff#X\	8ff#X\
8G#X\J	.	8g#X/J	.	8g#X/J	.	.	.	.	.	8gg#X\J	8gg#X\J
!	!	!	!	!	!	!	!	!	!	!LO:LB:g=original	!LO:LB:g=original
=131	=131	=131	=131	=131	=131	=131	=131	=131	=131	=131	=131
!LO:TX:t=P:problem=mixed beam	!	!	!	!	!	!	!	!	!	!	!
8A\L	.	8a/L	.	8a/L	.	2r	.	2r	.	8aa\L	8aa\L
8C/	.	8c/	.	8c/	.	.	.	.	.	8cc\	8cc\
8BB/	.	8B/	.	8B/	.	.	.	.	.	8b\	8b\
8AA/J	.	8A/J	.	8A/J	.	.	.	.	.	8a\J	8a\J
=132	=132	=132	=132	=132	=132	=132	=132	=132	=132	=132	=132
!	!	!	!	!	!	!	!LO:DY:a	!	!LO:DY:a	!	!
!	!	!	!	!	!	!	!LO:DY:t=fort(issi)mo	!	!LO:DY:t=fort(issi)mo	!	!
4E\	.	4ee\	.	4ee\|	.	4ee\	ff	4ee\	ff	4ee\	4ee\
4EE/	.	4e/	.	4e/|	.	4e/	.	4e/	.	4e/	4e/
=133	=133	=133	=133	=133	=133	=133	=133	=133	=133	=133	=133
4E\	.	4ee\	.	4ee\	.	4ee\	.	4ee\	.	4ee\	4ee\
4EE/	.	4e/	.	4e/	.	4e/	.	4e/	.	4e/	4e/
=134	=134	=134	=134	=134	=134	=134	=134	=134	=134	=134	=134
!	!	!	!	!	!	!LO:N:vis=0	!	!LO:N:vis=0	!	!	!
8r	.	8r	.	8r	.	1r	.	1r	.	8r	8r
!	!	!	!	!	!	!	!	!LO:TX:b:t=2	!	!	!
!	!	!	!	!	!	!LO:TX:b:t=2	!	!	!	!	!
8AA/L	.	8A/L	.	8A/L	.	.	.	.	.	8a/L	8a/L
8BB/	.	8B/	.	8B/	.	.	.	.	.	8b/	8b/
8C/J	.	8c/J	.	8c/J	.	.	.	.	.	8cc/J	8cc/J
=135	=135	=135	=135	=135	=135	=135	=135	=135	=135	=135	=135
8D\L	.	8d/L	.	8d/L	.	.	.	.	.	8dd\L	8dd\L
8E\	.	8e/	.	8e/	.	.	.	.	.	8ee\	8ee\
8F#X\	.	8f#X/	.	8f#X/	.	.	.	.	.	8ff#X\	8ff#X\
8G#X\J	.	8g#X/J	.	8g#X/J	.	.	.	.	.	8gg#X\J	8gg#X\J
=136	=136	=136	=136	=136	=136	=136	=136	=136	=136	=136	=136
!LO:TX:t=P:problem=mixed beam	!	!	!	!	!	!	!	!	!	!	!
8A\L	.	8a/L	.	8a/L	.	8r	.	8r	.	8aa\L	8aa\L
8C/	.	8c/	.	8c/	.	8cc\L	.	8cc\L	.	8cc\	8cc\
8BB/	.	8B/	.	8B/	.	8dd\	.	8dd\	.	8b\	8b\
8AA/J	.	8A/J	.	8A/J	.	8cc\J	.	8cc\J	.	8a\J	8a\J
!	!	!	!	!LO:LB:g=original	!	!	!	!	!	!	!
=137	=137	=137	=137	=137	=137	=137	=137	=137	=137	=137	=137
8qqD#X/	.	8qqd#X\	.	8qqd#X\	.	.	.	.	.	8qqdd#X/	8qqdd#X/
2E;\	.	2e;/	.	2e;/	.	2ee;\	.	2ee;\	.	2ee;\	2ee;\
!	!	!	!	!	!	!	!	!LO:LB:g=original	!	!LO:LB:g=original	!LO:LB:g=original
=138	=138	=138	=138	=138	=138	=138	=138	=138	=138	=138	=138
!	!	!	!LO:DY:a	!	!LO:DY:a	!LO:TX:a:t=20.	!	!	!	!LO:TX:a:t=Soli	!LO:TX:a:t=Soli
!LO:N:vis=0	!	!	!LO:DY:t=Po&colon;	!	!LO:DY:t=Po&colon;	!LO:N:vis=00	!	!LO:N:vis=00	!	!	!
1r	.	8A/L	p	8A/L	p	0r	.	0r	.	16e/LL	8cc#X\
.	.	.	.	.	.	.	.	.	.	16f/	.
!LO:TX:b:t=3.	!	!	!	!	!	!	!	!LO:TX:b:t=20	!	!	!
.	.	8A/	.	8A/	.	.	.	.	.	16g/	4.cc#\
.	.	.	.	.	.	.	.	.	.	16f/JJ	.
.	.	8A/	.	8A/	.	.	.	.	.	8e/L	.
.	.	8A/J	.	8A/J	.	.	.	.	.	8e/J	.
=139	=139	=139	=139	=139	=139	=139	=139	=139	=139	=139	=139
.	.	8A/L	.	8A/L	.	.	.	.	.	16cc#X\LL	8ee\
.	.	.	.	.	.	.	.	.	.	16dd\	.
.	.	8A/	.	8A/	.	.	.	.	.	16ee\	4.ee\
.	.	.	.	.	.	.	.	.	.	16dd\JJ	.
.	.	8A/	.	8A/	.	.	.	.	.	8cc#\L	.
.	.	8A/J	.	8A/J	.	.	.	.	.	8cc#\J	.
!	!	!LO:LB:g=original	!	!	!	!	!	!	!	!	!
=140	=140	=140	=140	=140	=140	=140	=140	=140	=140	=140	=140
!	!	!	!	!	!	!	!	!	!	!LO:TX:a:t=P:problem=mixed beam	!
2r	.	8A/L	.	8A/L	.	.	.	.	.	8e/L	8cc#X\L
.	.	8A/	.	8A/	.	.	.	.	.	(>8gg\	(>8bb-X\
.	.	8A/	.	8A/	.	.	.	.	.	8ff\	8aa\
.	.	8A/J	.	8A/J	.	.	.	.	.	8ee\J)	8gg\J)
=141	=141	=141	=141	=141	=141	=141	=141	=141	=141	=141	=141
!	!	!LO:TX:t=P:problem=mixed beam	!	!LO:TX:t=P:problem=mixed beam	!	!	!	!	!	!	!
8r	.	8d\L	.	8d/L	.	.	.	.	.	8dd\L	16ff\LL
.	.	.	.	.	.	.	.	.	.	.	16ee\J
!	!LO:DY:b	!	!LO:DY:a	!	!LO:DY:a	!	!	!	!	!	!
!	!LO:DY:t=for&colon;	!	!LO:DY:t=for&colon;	!	!LO:DY:t=for&colon;	!	!	!	!	!	!
8D/L	f	8dd/	f	8dd\	f	.	.	.	.	8ff\	8dd\J
8BB/	.	8B/	.	8B/	.	.	.	.	.	8dd\	4r
8AA/J	.	8A/J	.	8A/J	.	.	.	.	.	8cc\J	.
=142	=142	=142	=142	=142	=142	=142	=142	=142	=142	=142	=142
!	!	!	!LO:DY:a	!	!LO:DY:a	!LO:N:vis=00	!	!LO:N:vis=00	!	!	!
!	!	!	!LO:DY:t=Po&colon;	!	!LO:DY:t=Po&colon;	!	!	!	!	!	!
4GG/	.	8G/L	p	8G/L	p	0r	.	0r	.	(>16dd\LL	8b/
.	.	.	.	.	.	.	.	.	.	16ee\	.
.	.	8G/	.	8G/	.	.	.	.	.	16ff\	4.b/
.	.	.	.	.	.	.	.	.	.	16ee\JJ)	.
4r	.	8G/	.	8G/	.	.	.	.	.	8dd\L	.
.	.	8G/J	.	8G/J	.	.	.	.	.	8dd\J	.
=143	=143	=143	=143	=143	=143	=143	=143	=143	=143	=143	=143
!LO:TX:b:t=2	!	!	!	!	!	!	!	!	!	!	!
!LO:N:vis=0	!	!	!	!	!	!	!	!	!	!	!
1r	.	8G/L	.	8G/L	.	.	.	.	.	16b\LL	8dd\
.	.	.	.	.	.	.	.	.	.	16cc\	.
.	.	8G/	.	8G/	.	.	.	.	.	16dd\	4.dd\
.	.	.	.	.	.	.	.	.	.	16cc\JJ	.
.	.	8G/	.	8G/	.	.	.	.	.	8b\L	.
.	.	8G/J	.	8G/J	.	.	.	.	.	8b\J	.
!	!	!	!	!LO:LB:g=original	!	!	!	!	!	!LO:LB:g=original	!
=144	=144	=144	=144	=144	=144	=144	=144	=144	=144	=144	=144
!	!	!	!	!	!	!	!	!	!	!LO:TX:a:t=P:problem=mixed beam	!LO:TX:t=P:problem=mixed beam
.	.	8G/L	.	8G/L	.	.	.	.	.	8d/L	8b/L
.	.	8G/	.	8G/	.	.	.	.	.	(>8ff\	(>8aa\
.	.	8G/	.	8G/	.	.	.	.	.	8ee/	8gg\
.	.	8G/J	.	8G/J	.	.	.	.	.	8dd\J)	8ff\J)
!LO:LB:g=original	!	!	!	!	!	!	!	!	!	!	!LO:LB:g=original
=145	=145	=145	=145	=145	=145	=145	=145	=145	=145	=145	=145
!	!	!	!	!	!	!	!	!	!	!LO:TX:a:t=P:problem=mixed beam	!
8r	.	8c/L	.	8c/L	.	.	.	.	.	8cc\L	(>16ee\LL
.	.	.	.	.	.	.	.	.	.	.	16dd\J)
8C/L	.	8c/	.	8c/	.	.	.	.	.	8e/J	8cc\J
8C/	.	8c/	.	8c/	.	.	.	.	.	16e/LL	4r
.	.	.	.	.	.	.	.	.	.	16f/	.
8C/J	.	8c/J	.	8c/J	.	.	.	.	.	16g/	.
.	.	.	.	.	.	.	.	.	.	16f/JJ	.
=146	=146	=146	=146	=146	=146	=146	=146	=146	=146	=146	=146
!	!LO:DY:a	!	!	!	!	!LO:N:vis=00	!	!LO:N:vis=00	!	!	!
!	!LO:DY:t=Po&colon;	!	!	!	!	!	!	!	!	!	!
8C/L	p	8e/L	.	8cc\L	.	0r	.	0r	.	8e/L	(>16cc\LL
.	.	.	.	.	.	.	.	.	.	.	16dd\
8C/	.	8e/	.	8cc\	.	.	.	.	.	[<8e/J	16ee\)
.	.	.	.	.	.	.	.	.	.	.	16ff\JJ
!	!	!	!	!	!	!	!	!	!	!	!LO:TX:t=P:problem=mixed beam
8C/	.	8e/	.	8cc\	.	.	.	.	.	16e/LL]	16gg\LL
.	.	.	.	.	.	.	.	.	.	16g/	(>16b-X/
8C/J	.	8e/J	.	8cc\J	.	.	.	.	.	16f/	16a/
.	.	.	.	.	.	.	.	.	.	16e/JJ	16b-/JJ)
=147	=147	=147	=147	=147	=147	=147	=147	=147	=147	=147	=147
8FF/L	.	8f/L	.	8cc\L	.	.	.	.	.	16f/LL	(>16a/LL
.	.	.	.	.	.	.	.	.	.	16e/JJ	16g/
8FF/	.	8f/	.	8cc\	.	.	.	.	.	4f/	16f/)
.	.	.	.	.	.	.	.	.	.	.	16e/JJ
8FF/	.	8f/	.	8cc\	.	.	.	.	.	.	16f/LL|
.	.	.	.	.	.	.	.	.	.	.	(<16g/
8FF/J	.	8f/J	.	8cc\J	.	.	.	.	.	8f/	16a/
.	.	.	.	.	.	.	.	.	.	.	16bn/JJ)
=148	=148	=148	=148	=148	=148	=148	=148	=148	=148	=148	=148
8C/L	.	8e/L	.	8cc\L	.	.	.	.	.	8e/L	(>16cc\LL
.	.	.	.	.	.	.	.	.	.	.	16dd\
8C/	.	8e/	.	8cc\	.	.	.	.	.	[<8e/J	16ee\)
.	.	.	.	.	.	.	.	.	.	.	16ff\JJ
!	!	!	!	!	!	!	!	!	!	!	!LO:TX:t=P:problem=mixed beam
8C/	.	8e/	.	8cc\	.	.	.	.	.	16e/LL]	16gg\LL|
.	.	.	.	.	.	.	.	.	.	16g/	(<16b-X/
8C/J	.	8e/J	.	8cc\J	.	.	.	.	.	16f/	16a/
.	.	.	.	.	.	.	.	.	.	16e/JJ	16b-/JJ)
!	!	!	!	!	!	!	!	!	!	!	!LO:LB:g=original
=149	=149	=149	=149	=149	=149	=149	=149	=149	=149	=149	=149
!LO:TX:t=P:problem=mixed beam	!	!	!	!	!	!	!	!	!	!	!
8FF/L	.	8f/L	.	4cc\	.	.	.	.	.	16f/LL	(<16a/LL
.	.	.	.	.	.	.	.	.	.	16e/J	16g/
8F\	.	8a/	.	.	.	.	.	.	.	8f/J	16f/)
.	.	.	.	.	.	.	.	.	.	.	16e/JJ
8F\	.	8a/	.	4r	.	.	.	.	.	4r	16f/LL
.	.	.	.	.	.	.	.	.	.	.	16g/
8E\J	.	8g/J	.	.	.	.	.	.	.	.	(<16a/
.	.	.	.	.	.	.	.	.	.	.	32b/L
.	.	.	.	.	.	.	.	.	.	.	32cc#X/JJJ)
!	!	!LO:LB:g=original	!	!	!	!	!	!	!	!LO:LB:g=original	!
=150	=150	=150	=150	=150	=150	=150	=150	=150	=150	=150	=150
!	!	!	!	!	!	!LO:N:vis=00	!	!LO:N:vis=00	!	!	!
8D\L	.	8f#X/L	.	8dd\L	.	0r	.	0r	.	8f#X/L	(>16dd\LL
.	.	.	.	.	.	.	.	.	.	.	16ee\
8D\	.	8f#/	.	8dd\	.	.	.	.	.	[<8f#/J	16ff#X\)
.	.	.	.	.	.	.	.	.	.	.	16gg\JJ
8D\	.	8f#/	.	8dd\	.	.	.	.	.	16f#/LL]	16aa\LL
.	.	.	.	.	.	.	.	.	.	16a/	(>16cc\
8D\J	.	8f#/J	.	8dd\J	.	.	.	.	.	16g/	16b\
.	.	.	.	.	.	.	.	.	.	16f#/JJ	16cc\JJ)
=151	=151	=151	=151	=151	=151	=151	=151	=151	=151	=151	=151
8GG/L	.	8g/L	.	8dd\L	.	.	.	.	.	16g/LL	(<16b/LL
.	.	.	.	.	.	.	.	.	.	16f#X/JJ	16a/
8GG/	.	8g/	.	8dd\	.	.	.	.	.	4g/	16g/)
.	.	.	.	.	.	.	.	.	.	.	16f#X/JJ
8GG/	.	8g/	.	8dd\	.	.	.	.	.	.	16g/LL
.	.	.	.	.	.	.	.	.	.	.	16a/
8GG/J	.	8g/J	.	8dd\J	.	.	.	.	.	8g/	16b/
.	.	.	.	.	.	.	.	.	.	.	16cc/JJ
!	!	!	!	!LO:LB:g=original	!	!	!	!	!	!	!LO:LB:g=original
=152	=152	=152	=152	=152	=152	=152	=152	=152	=152	=152	=152
8D\L	.	8f#X/L	.	8dd\L	.	.	.	.	.	8f#X/L	16dd\LL
.	.	.	.	.	.	.	.	.	.	.	16ee\
8D\	.	8f#/	.	8dd\	.	.	.	.	.	[<8f#/J	16ff#X\
.	.	.	.	.	.	.	.	.	.	.	16gg\JJ
8D\	.	8f#/	.	8dd\	.	.	.	.	.	16f#/LL]	16aa\LL
.	.	.	.	.	.	.	.	.	.	16a/	(>16cc\
8D\J	.	8f#/J	.	8dd\J	.	.	.	.	.	16g/	16b\
.	.	.	.	.	.	.	.	.	.	16f#/JJ	16cc\JJ)
=153	=153	=153	=153	=153	=153	=153	=153	=153	=153	=153	=153
!LO:TX:t=P:problem=mixed beam	!	!	!	!	!	!	!	!	!	!	!
8GG/L	.	4g/	.	4dd\	.	.	.	.	.	16g/LL	(<16b/LL
.	.	.	.	.	.	.	.	.	.	16f#X/JJ	16a/J)
8G\J	.	.	.	.	.	.	.	.	.	4g/	8g/J
4GG/	.	4r	.	4r	.	.	.	.	.	.	8r
.	.	.	.	.	.	.	.	.	.	8r	8g/
=154	=154	=154	=154	=154	=154	=154	=154	=154	=154	=154	=154
!	!	!LO:TX:b:t=4	!	!LO:TX:b:t=4	!LO:N:vis=00	!	!LO:N:vis=00	!	!	!	!
!	!	!LO:N:vis=00	!	!LO:N:vis=00	!	!	!	!	!	!	!
4r	.	0r	.	0r	.	0r	.	0r	.	4r	8ff\
.	.	.	.	.	.	.	.	.	.	.	4ff\
8r	.	.	.	.	.	.	.	.	.	8r	.
8C/	.	.	.	.	.	.	.	.	.	[>8cc\	8ee\
=155	=155	=155	=155	=155	=155	=155	=155	=155	=155	=155	=155
8F\	.	.	.	.	.	.	.	.	.	8cc\]	8aa\
4F\	.	.	.	.	.	.	.	.	.	4cc\	4aa\
8E\	.	.	.	.	.	.	.	.	.	8cc\	8gg\
!	!	!	!	!	!	!	!	!	!	!LO:LB:g=original	!
=156	=156	=156	=156	=156	=156	=156	=156	=156	=156	=156	=156
8D/	.	.	.	.	.	.	.	.	.	8b/	8ff\
4D/	.	.	.	.	.	.	.	.	.	4b/	4ff\
8C/	.	.	.	.	.	.	.	.	.	8cc\	8ee\
!LO:LB:g=original	!	!	!	!	!	!	!	!	!	!	!LO:LB:g=original
=157	=157	=157	=157	=157	=157	=157	=157	=157	=157	=157	=157
8F\	.	.	.	.	.	.	.	.	.	8a/	8dd\
4F\	.	.	.	.	.	.	.	.	.	4a/	4dd\
8F#X\	.	.	.	.	.	.	.	.	.	8a/	8cc\
=158	=158	=158	=158	=158	=158	=158	=158	=158	=158	=158	=158
4G\	.	8g/L	.	8dd\L	.	4r	.	4r	.	16g/LL	(>16b\LL
.	.	.	.	.	.	.	.	.	.	(<16a/	16cc\
.	.	8g/	.	8dd\	.	.	.	.	.	16b/)	16dd\)
.	.	.	.	.	.	.	.	.	.	16cc/JJ	16ee\JJ
!	!	!	!	!	!	!	!LO:DY:a	!	!	!	!
!	!	!	!	!	!	!	!LO:DY:b:t=Po&colon;	!	!	!	!
8r	.	8g/	.	8dd\	.	8r	p	8r	.	8dd\L	8ff\L
!	!	!	!	!	!	!	!	!	!LO:DY:b:t=Po&colon;	!	!
8C/	.	8g/J	.	8cc\J	.	8cc\	p	8ee\	p	8cc\J	8ee\J
=159	=159	=159	=159	=159	=159	=159	=159	=159	=159	=159	=159
!	!	!	!	!LO:TX:t=P:problem=mixed beam	!	!	!	!	!	!	!
4G\	.	8g/L	.	8g/L	.	8g/	.	8dd\	.	(>16cc\LL	(>16ee\LL
.	.	.	.	.	.	.	.	.	.	16b\JJ)	16dd\JJ)
.	.	8g/	.	8ee\	.	8r	.	8r	.	4ee\	4ccc\
8r	.	8g/	.	8ee\	.	8r	.	8r	.	.	.
8C/	.	8g/J	.	8ee\J	.	8cc\	.	8ee\	.	8cc\	8ee\
=160	=160	=160	=160	=160	=160	=160	=160	=160	=160	=160	=160
8G\L	.	8g/L	.	8dd\L	.	8g/	.	8dd\	.	16cc\LL	(>16ee\LL
.	.	.	.	.	.	.	.	.	.	16b\JJ	16dd\JJ)
!	!LO:DY:a	!	!	!	!	!	!	!	!	!	!
!	!LO:DY:t=for&colon;	!	!	!	!	!	!	!	!	!	!
8F#X\	f	8a/	.	8cc\	.	8r	.	8r	.	4ee-X\	4ccc\
8F#\	.	8a/	.	8cc\	.	4r	.	4r	.	.	.
8F#\J	.	8a/J	.	8cc\J	.	.	.	.	.	8cc\	8ee-X\
=161	=161	=161	=161	=161	=161	=161	=161	=161	=161	=161	=161
!	!	!	!	!	!	!LO:TX:a:t=Allegretto\nsi Tace	!	!LO:TX:a:t=Allegretto si Tace	!	!	!
!	!	!	!	!	!	!LO:TX:t=P:problem=w źródle "Da capo sin' al Segno" i "Allegretto si Tace" zapisane na pięciolnii, za taktem 161	!	!LO:TX:t=P:problem=w źródle "Da capo sin' al Segno" i "Allegretto si Tace" zapisane na pięciolnii, za taktem 161	!	!	!
!LO:TX:t=P:problem=mixed beam	!	!	!	!	!	!LO:TX:a:t=Da capo\nsin' al Segno	!	!LO:TX:a:t=Da capo\nsin' al Segno	!	!	!
.	.	.	.	.	.	.	.	.	.	8qqdd/	8qqff/
!	!	!	!	!	!	!LO:N:vis=1	!	!LO:N:vis=1	!	!	!
8G\L	.	4d/	.	(>8cc\L	.	2r	.	2r	.	8ccT\L	8eet\L
8GG/J	.	.	.	8b\J)	.	.	.	.	.	8b\J	8dd\J
!	!LO:DY:a	!	!LO:DY:a	!	!	!	!	!	!	!LO:TX:b:t=Da capo\nsin' al Segno	!LO:TX:b:t=Da Capo\nsin' al Segno
!	!LO:DY:t=fort(issi)mo	!	!LO:DY:t=for&colon;	!	!	!	!	!	!	!LO:TX:b:t=Siegue 'l allegretto	!LO:TX:b:t=Siegue 'l' Allegretto.
16r	ff	16r	f	16r	.	.	.	.	.	4r	4r
!	!	!	!	!	!LO:DY:b	!	!	!	!	!	!
!	!	!	!	!	!LO:DY:t=fort(issi)mo	!	!	!	!	!	!
16G\LL	.	16g/LL	.	16g/LL	ff	.	.	.	.	.	.
16A\	.	16a/	.	16a/	.	.	.	.	.	.	.
16B\JJ	.	16b/JJ	.	16b/JJ	.	.	.	.	.	.	.
!	!	!	!	!LO:TX:t=P:problem=w źródle "Da capo sin' al Segno" zapisane na pięciolnii, za taktem 161	!	!	!	!	!	!	!
!LO:TX:a:t=Da capo sin' al Segno	!	!LO:TX:a:t=Da capo\nsin' al Segno.	!	!LO:TX:a:t=Da capo\nsin' al Segno	!	!	!	!	!	!	!
!LO:TX:t=P:problem=w źródle "Da capo sin' al Segno" zapisane na pięciolnii, za taktem 161	!	!LO:TX:t=P:problem=w źródle "Da capo sin' al Segno" zapisane na pięciolnii, za taktem 161	!	!LO:TX:b:t=Siegue 'l Allegretto.	!	!	!	!	!	!	!
=||	=||	=||	=||	=||	=||	=||	=||||	=||	=||	=||	=||
*-	*-	*-	*-	*-	*-	*-	*-	*-	*-	*-	*-
!!!system-decoration: [(s1,s2)][(s3,s4)][(s5,s6)][(s7)]
!!!RDF**kern: > = above
!!!RDF**kern: < = below
!!!RDF**kern: | = vertical stroke
!!!EED: Antoni Szymański
!!!EEV: 2020-10-08
!!!ENC: Marta Chmielewska
!!!END: 2020-06-02
